!!!!SEGMENT: pl-cz--iii-681--001-004_volckmer-augustin--litaniae-lauretanae-f-agnus-dei.krn
!!!cenid: 17xx:1131
!!!COM: Volckmer, Augustin
!!!COM-rismID: pe30020656
!!!CDT: 1755-~1820
!!!CNT:
!!!OPR: Litaniae Lauretanae F
!!!OTL: Agnus Dei
!!!OMV: 004
!!!PDT:
!!!AGN: Sacred; Mass
!!!YEC: Copyright 2022 Narodowy Instytut Fryderyka Chopina (https://polishscores.org)
!!!YEM: License CC-BY-4.0 (https://creativecommons.org/licenses/by/4.0)
!!!SMS-siglum: PL-CZ
!!!SMS-shelfmark: III-681
!!!SMS-shelfwork: 001-004 M
!!!SMS-variant:
!!!SMS-altvar:
!!!NIFC-rismSourceID: 300001389
!!!NIFC-rismChildID: 300001389
!!!NIFC-islandoraID: pl-cz:40118
!!!URL-pdf-islandora: https://repozytorium.nifc.pl/islandora/object/pl-cz%3A40118/datastream/PDF/view
!!!URL-scan: https://polish.musicsources.pl/pl/lokalizacje/galeria/rekopisy/6980/1 @EN{Scan on Polish Music Sources Website} @PL{Skany w portalu Dziedzictwo Muzyki Polskiej w otwartym dostępie}
!!!IIIF:
!!!ONB-nifc: UWAGA: części Litanii: Kyrie eleison, Sancta Maria, Speculum iustitiae, Agnus Dei
!!!AIN: 1 alto 1 bass 2 cor 2 flt 2 oboe 1 organ 1 soprn 1 tenor 1 viola 2 violn
!!!key: F
**kern	**fba	**dynam	**kern	**dynam	**kern	**dynam	**kern	**dynam	**kern	**text	**kern	**text	**kern	**text	**kern	**text	**kern	**dynam	**kern	**dynam	**kern	**dynam	**kern	**dynam	**kern	**dynam	**kern	**dynam
*part14	*	*	*part13	*	*part12	*	*part11	*	*part10	*	*part9	*	*part8	*	*part7	*	*part6	*	*part5	*	*part4	*	*part3	*	*part2	*	*part1	*
*staff14	*	*	*staff13	*	*staff12	*	*staff11	*	*staff10	*	*staff9	*	*staff8	*	*staff7	*	*staff6	*	*staff5	*	*staff4	*	*staff3	*	*staff2	*	*staff1	*
*I"Organo.	*	*	*I"Viola obgl	*	*I"Violino Secundo	*	*I"Violino Primo	*	*I"Baſso.	*	*I"Tenore	*	*I"Alto	*	*I"Canto.	*	*I"in F: Corno Secundo	*	*I"in F: Corno Primo	*	*I"Hubo Secundo	*	*I"Hubo Primo	*	*I"Flauto Secundo	*	*I"Flauti Primo.	*
*I'org	*	*	*I'vla obl	*	*I'vl II	*	*I'vl I	*	*I'B	*	*I'T	*	*I'A	*	*I'S	*	*I'cor II	*	*I'cor I	*	*I'ob II	*	*I'ob I	*	*I'fl II	*	*I'fl I	*
*ICklav	*	*	*ICstr	*	*ICstr	*	*ICstr	*	*ICvox	*	*ICvox	*	*ICvox	*	*ICvox	*	*ICbras	*	*ICbras	*	*ICww	*	*ICww	*	*ICww	*	*ICww	*
*Iorgan	*	*	*Iviola	*	*Ivioln	*	*Ivioln	*	*Ibass	*	*Itenor	*	*Ialto	*	*Isoprn	*	*Icor	*	*Icor	*	*Ioboe	*	*Ioboe	*	*Iflt	*	*Iflt	*
*clefF4	*	*	*clefC3	*	*clefG2	*	*clefG2	*	*clefF4	*	*clefC4	*	*clefC3	*	*clefC1	*	*clefG2	*	*clefG2	*	*clefG2	*	*clefG2	*	*clefG2	*	*clefG2	*
*	*	*	*	*	*	*	*	*	*	*	*	*	*	*	*	*	*ITrd4c7	*	*ITrd4c7	*	*	*	*	*	*	*	*	*
*k[b-]	*	*	*k[b-]	*	*k[b-]	*	*k[b-]	*	*k[b-]	*	*k[b-]	*	*k[b-]	*	*k[b-]	*	*k[b-]	*	*k[b-]	*	*k[b-]	*	*k[b-]	*	*k[b-]	*	*k[b-]	*
*F:	*	*	*F:	*	*F:	*	*F:	*	*F:	*	*F:	*	*F:	*	*F:	*	*F:	*	*F:	*	*F:	*	*F:	*	*F:	*	*F:	*
*M3/4	*	*	*M3/4	*	*M3/4	*	*M3/4	*	*M3/4	*	*M3/4	*	*M3/4	*	*M3/4	*	*M3/4	*	*M3/4	*	*M3/4	*	*M3/4	*	*M3/4	*	*M3/4	*
=1	=1	=1	=1	=1	=1	=1	=1	=1	=1	=1	=1	=1	=1	=1	=1	=1	=1	=1	=1	=1	=1	=1	=1	=1	=1	=1	=1	=1
*	*	*	*	*	*	*	*	*	*	*	*	*	*2\right	*	*2\right	*	*2\right	*	*2\right	*	*	*	*	*	*2\right	*	*	*
!	!	!	!	!	!	!	!	!	!	!	!	!	!	!	!	!	!LO:N:vis=00	!	!	!	!LO:TX:t=P:problem:all\right	!	!LO:TX:t=P:problem:all\right	!	!	!	!	!
!	!	!	!	!	!	!	!	!	!LO:N:vis=00	!	!	!	!LO:N:vis=00	!	!LO:N:vis=00	!	!LO:TX:a:t=in f.	!	!LO:N:vis=00	!	!LO:N:vis=00	!	!LO:N:vis=00	!	!	!	!LO:N:vis=00	!
!LO:TX:t=P:problem:all\right	!	!	!	!	!LO:TX:t=P:problem:all\right	!	!LO:TX:t=P:problem:all\right	!	!LO:TX:t=P:problem:all\right	!	!LO:N:vis=00	!	!LO:TX:a:t=13	!	!LO:TX:b:t=Agnus.	!	!LO:TX:b:t=Agnus	!	!LO:TX:b:t=Agnus	!	!LO:TX:a:t=13	!	!LO:TX:a:t=13	!	!LO:N:vis=00	!	!LO:TX:b:t=Agnus.	!
!LO:TX:b:t=Agnus	!	!	!LO:TX:a:B:t=Andante amoroso.	!	!LO:TX:a:B:t=Andante amoroso.	!	!LO:TX:a:B:t=andante amoroso.	!	!LO:TX:a:t=13	!	!LO:TX:t=P:problem:all\right	!	!LO:TX:b:t=Agnus	!	!LO:TX:a:t=13	!	!LO:TX:a:t=12	!	!LO:TX:a:t=13	!	!LO:TX:b:t=Agnus	!	!LO:TX:a:B:t=Andante amoroso	!	!LO:TX:a:B:t=Andante amoroso	!	!LO:TX:a:B:t=Andante amoroso.	!
!LO:TX:a:B:t=Andante amoroso	!	!LO:DY:b:t=pia:color=red	!LO:TX:b:t=Agnus.	!LO:DY:b:t=pia:color=red	!LO:TX:b:t=Agnus.	!	!LO:TX:b:t=Agnus.	!	!LO:TX:b:t=Agnus	!	!LO:TX:a:t=5	!	!LO:TX:a:B:t=andante amoroso	!	!LO:TX:a:B:t=andante amoroso	!	!LO:TX:a:B:t=Andante amoroso	!	!LO:TX:a:B:t=Andante amoroso	!	!LO:TX:a:B:t=Andante amoroso	!	!LO:TX:b:t=Agnus	!	!LO:TX:b:t=Agnus	!	!LO:TX:a:t=13.	!
4FF/ 4F	.	p	4f\	p	8r	.	8r	.	0.r	.	0.r	.	0.r	.	0.r	.	0.r	.	0.r	.	0.r	.	0.r	.	0.r	.	0.r	.
!	!	!	!	!	!	!LO:DY:a:t=mezzo Piano:color=red	!	!LO:DY:a:t=mezzo piano:color=red	!	!	!	!	!	!	!	!	!	!	!	!	!	!	!	!	!	!	!	!
.	.	.	.	.	8A|/L	mp	8f|/L	mp	.	.	.	.	.	.	.	.	.	.	.	.	.	.	.	.	.	.	.	.
4r	.	.	4r	.	(8c/	.	(8a/	.	.	.	.	.	.	.	.	.	.	.	.	.	.	.	.	.	.	.	.	.
.	.	.	.	.	8A/)	.	8f/)	.	.	.	.	.	.	.	.	.	.	.	.	.	.	.	.	.	.	.	.	.
4FF/ 4F	.	.	4f\	.	(8c/	.	(8a/	.	.	.	.	.	.	.	.	.	.	.	.	.	.	.	.	.	.	.	.	.
.	.	.	.	.	8A/J)	.	8f/J)	.	.	.	.	.	.	.	.	.	.	.	.	.	.	.	.	.	.	.	.	.
=2	=2	=2	=2	=2	=2	=2	=2	=2	=2	=2	=2	=2	=2	=2	=2	=2	=2	=2	=2	=2	=2	=2	=2	=2	=2	=2	=2	=2
4C/	.	.	4c\	.	8r	.	8r	.	.	.	.	.	.	.	.	.	.	.	.	.	.	.	.	.	.	.	.	.
.	.	.	.	.	8e|/L	.	8g|/L	.	.	.	.	.	.	.	.	.	.	.	.	.	.	.	.	.	.	.	.	.
4r	.	.	4r	.	(8g/	.	(8b-/	.	.	.	.	.	.	.	.	.	.	.	.	.	.	.	.	.	.	.	.	.
.	.	.	.	.	8e/)	.	8g/)	.	.	.	.	.	.	.	.	.	.	.	.	.	.	.	.	.	.	.	.	.
4C/	.	.	4c\	.	(8g/	.	(8b-/	.	.	.	.	.	.	.	.	.	.	.	.	.	.	.	.	.	.	.	.	.
.	.	.	.	.	8e/J)	.	8g/J)	.	.	.	.	.	.	.	.	.	.	.	.	.	.	.	.	.	.	.	.	.
=3	=3	=3	=3	=3	=3	=3	=3	=3	=3	=3	=3	=3	=3	=3	=3	=3	=3	=3	=3	=3	=3	=3	=3	=3	=3	=3	=3	=3
4F\	.	.	4c\	.	(8f/L	.	(8a/L	.	.	.	.	.	.	.	.	.	.	.	.	.	.	.	.	.	.	.	.	.
.	.	.	.	.	16e/L	.	16g/L	.	.	.	.	.	.	.	.	.	.	.	.	.	.	.	.	.	.	.	.	.
.	.	.	.	.	16f/JJ)	.	16a/JJ)	.	.	.	.	.	.	.	.	.	.	.	.	.	.	.	.	.	.	.	.	.
4BB-/	.	.	4d\	.	8d|/L	.	8b-|/L	.	.	.	.	.	.	.	.	.	.	.	.	.	.	.	.	.	.	.	.	.
.	.	.	.	.	8B-|/	.	8g|/	.	.	.	.	.	.	.	.	.	.	.	.	.	.	.	.	.	.	.	.	.
4C/	.	.	8c\L	.	8A|/	.	8f|/	.	.	.	.	.	.	.	.	.	.	.	.	.	.	.	.	.	.	.	.	.
.	.	.	8c\J	.	8G|/J	.	8e|/J	.	.	.	.	.	.	.	.	.	.	.	.	.	.	.	.	.	.	.	.	.
=4	=4	=4	=4	=4	=4	=4	=4	=4	=4	=4	=4	=4	=4	=4	=4	=4	=4	=4	=4	=4	=4	=4	=4	=4	=4	=4	=4	=4
8FF/L	5 3	.	8f|\L	.	4a/	.	(4cc\	.	.	.	.	.	.	.	.	.	.	.	.	.	.	.	.	.	.	.	.	.
8F\J	.	.	8f|\	.	.	.	.	.	.	.	.	.	.	.	.	.	.	.	.	.	.	.	.	.	.	.	.	.
8C/L	7 5	.	(8c\	.	4g/	.	4b-\)	.	.	.	.	.	.	.	.	.	.	.	.	.	.	.	.	.	.	.	.	.
8C#X/	.	.	8c#X\)	.	.	.	.	.	.	.	.	.	.	.	.	.	.	.	.	.	.	.	.	.	.	.	.	.
8D/	5 3	.	8d|\	.	8f/L	.	8a\L	.	.	.	.	.	.	.	.	.	.	.	.	.	.	.	.	.	.	.	.	.
8AA/J	.	.	8A|\J	.	8e-X/J	.	8cc\J	.	.	.	.	.	.	.	.	.	.	.	.	.	.	.	.	.	.	.	.	.
=5	=5	=5	=5	=5	=5	=5	=5	=5	=5	=5	=5	=5	=5	=5	=5	=5	=5	=5	=5	=5	=5	=5	=5	=5	=5	=5	=5	=5
!	!	!	!	!	!	!	!	!	!LO:N:vis=00	!	!LO:N:vis=1	!	!LO:N:vis=00	!	!LO:N:vis=00	!	!LO:N:vis=00	!	!LO:N:vis=00	!	!LO:N:vis=00	!	!LO:N:vis=00	!	!LO:N:vis=00	!	!LO:N:vis=00	!
8BB-/L	.	.	8B-/L	.	(16e/LL	.	(16cc\LL	.	0.r	.	2.r	.	0.r	.	0.r	.	0.r	.	0.r	.	0.r	.	0.r	.	0.r	.	0.r	.
.	.	.	.	.	16d/	.	16b-\	.	.	.	.	.	.	.	.	.	.	.	.	.	.	.	.	.	.	.	.	.
8GG/J	.	.	8d/J	.	16c/	.	16a\	.	.	.	.	.	.	.	.	.	.	.	.	.	.	.	.	.	.	.	.	.
.	.	.	.	.	16B-/JJ)	.	16g\JJ)	.	.	.	.	.	.	.	.	.	.	.	.	.	.	.	.	.	.	.	.	.
4C/	.	.	4c\	.	4A/	.	4f/	.	.	.	.	.	.	.	.	.	.	.	.	.	.	.	.	.	.	.	.	.
4CC/	.	.	4c\	.	4G/	.	4e/	.	.	.	.	.	.	.	.	.	.	.	.	.	.	.	.	.	.	.	.	.
=6	=6	=6	=6	=6	=6	=6	=6	=6	=6	=6	=6	=6	=6	=6	=6	=6	=6	=6	=6	=6	=6	=6	=6	=6	=6	=6	=6	=6
!LO:TX:a:i:t=Solo:color=red	!	!	!	!	!	!LO:DY:b:t=pia:color=red	!	!LO:DY:b:t=pia vox:color=red	!	!	!LO:TX:a:B:t=andante amoroso	!	!	!	!	!	!	!	!	!	!	!	!	!	!	!	!	!
4FF/	.	.	4f\	.	(8.a/L	p	(8.cc\L	p	.	.	8.cT\L	A-	.	.	.	.	.	.	.	.	.	.	.	.	.	.	.	.
.	.	.	.	.	32g/LL	.	32b-\LL	.	.	.	(32B-\LL	.	.	.	.	.	.	.	.	.	.	.	.	.	.	.	.	.
.	.	.	.	.	32a/JJJ)	.	32cc\JJJ)	.	.	.	(32c\JJJ)	.	.	.	.	.	.	.	.	.	.	.	.	.	.	.	.	.
4r	.	.	4r	.	(4b-/	.	(4dd\	.	.	.	4d\)	.	.	.	.	.	.	.	.	.	.	.	.	.	.	.	.	.
4BB-/	.	.	4B-/	.	4g/)	.	4b-\)	.	.	.	4B-\	-gnus	.	.	.	.	.	.	.	.	.	.	.	.	.	.	.	.
!	!	!	!	!	!	!	!LO:LB:g=original	!	!	!	!	!	!	!	!	!	!	!	!	!	!	!	!	!	!	!	!	!
=7	=7	=7	=7	=7	=7	=7	=7	=7	=7	=7	=7	=7	=7	=7	=7	=7	=7	=7	=7	=7	=7	=7	=7	=7	=7	=7	=7	=7
4C/	.	.	4c\	.	8f/L	.	(8a/L	.	.	.	(8A\L	De-	.	.	.	.	.	.	.	.	.	.	.	.	.	.	.	.
.	.	.	.	.	8e/J	.	8g/J)	.	.	.	8G\J)	.	.	.	.	.	.	.	.	.	.	.	.	.	.	.	.	.
4CC/	.	.	4c\	.	4e/	.	4g/	.	.	.	4G/	-i	.	.	.	.	.	.	.	.	.	.	.	.	.	.	.	.
4BB-/	.	.	4c\	.	8f/L	.	(8a/L	.	.	.	(8A\L	qui	.	.	.	.	.	.	.	.	.	.	.	.	.	.	.	.
.	.	.	.	.	8g/J	.	8b-/J)	.	.	.	8B-\J)	.	.	.	.	.	.	.	.	.	.	.	.	.	.	.	.	.
!	!	!	!	!	!LO:LB:g=original	!	!	!	!	!	!	!	!	!	!	!	!	!	!	!	!	!	!	!	!	!	!	!
=8	=8	=8	=8	=8	=8	=8	=8	=8	=8	=8	=8	=8	=8	=8	=8	=8	=8	=8	=8	=8	=8	=8	=8	=8	=8	=8	=8	=8
4AA/	.	.	4f\	.	(8a/L	.	(8cc\L	.	.	.	(8c\L	tol-	.	.	.	.	.	.	.	.	.	.	.	.	.	.	.	.
.	.	.	.	.	8f/)	.	8a\J)	.	.	.	8A\J)	.	.	.	.	.	.	.	.	.	.	.	.	.	.	.	.	.
4BB-/	.	.	4g\	.	(8d/	.	(8b-\L	.	.	.	8B-\	-lis	.	.	.	.	.	.	.	.	.	.	.	.	.	.	.	.
.	.	.	.	.	8B-/J)	.	8g\J)	.	.	.	8G/	pec-	.	.	.	.	.	.	.	.	.	.	.	.	.	.	.	.
8C/L	.	.	8f\L	.	(16B-/LL	.	(16g/LL	.	.	.	(16G/LL	-ca-	.	.	.	.	.	.	.	.	.	.	.	.	.	.	.	.
.	.	.	.	.	16A/)	.	16f/)	.	.	.	16F/)	.	.	.	.	.	.	.	.	.	.	.	.	.	.	.	.	.
8CC/J	.	.	8c\J	.	(16A/	.	(16f/	.	.	.	(16F/	.	.	.	.	.	.	.	.	.	.	.	.	.	.	.	.	.
.	.	.	.	.	16G/JJ)	.	16e/JJ)	.	.	.	16E/JJ)	.	.	.	.	.	.	.	.	.	.	.	.	.	.	.	.	.
!LO:LB:g=original	!	!	!	!	!	!	!	!	!	!	!	!	!	!	!	!	!	!	!	!	!	!	!	!	!	!	!	!
=9	=9	=9	=9	=9	=9	=9	=9	=9	=9	=9	=9	=9	=9	=9	=9	=9	=9	=9	=9	=9	=9	=9	=9	=9	=9	=9	=9	=9
!	!	!	!	!	!	!	!	!	!LO:N:vis=00	!	!	!	!LO:N:vis=00	!	!LO:N:vis=00	!	!LO:N:vis=00	!	!LO:N:vis=00	!	!LO:N:vis=00	!	!LO:N:vis=00	!	!LO:N:vis=00	!	!LO:N:vis=00	!
4FF/	.	.	4c\	.	8A/	.	(16f/LL	.	0.r	.	4F/	-ta	0.r	.	0.r	.	0.r	.	0.r	.	0.r	.	0.r	.	0.r	.	0.r	.
.	.	.	.	.	.	.	16c/	.	.	.	.	.	.	.	.	.	.	.	.	.	.	.	.	.	.	.	.	.
.	.	.	.	.	8r	.	16d/	.	.	.	.	.	.	.	.	.	.	.	.	.	.	.	.	.	.	.	.	.
.	.	.	.	.	.	.	16e/JJ)	.	.	.	.	.	.	.	.	.	.	.	.	.	.	.	.	.	.	.	.	.
4r	.	.	4r	.	8r	.	(16f/LL	.	.	.	4r	.	.	.	.	.	.	.	.	.	.	.	.	.	.	.	.	.
.	.	.	.	.	.	.	16a/)	.	.	.	.	.	.	.	.	.	.	.	.	.	.	.	.	.	.	.	.	.
.	.	.	.	.	8e/	.	16g|/	.	.	.	.	.	.	.	.	.	.	.	.	.	.	.	.	.	.	.	.	.
.	.	.	.	.	.	.	16b-|/JJ	.	.	.	.	.	.	.	.	.	.	.	.	.	.	.	.	.	.	.	.	.
4r	.	.	4r	.	(16f/LL	.	(16a\LL	.	.	.	4r	.	.	.	.	.	.	.	.	.	.	.	.	.	.	.	.	.
.	.	.	.	.	16a/)	.	16cc\)	.	.	.	.	.	.	.	.	.	.	.	.	.	.	.	.	.	.	.	.	.
.	.	.	.	.	(16g/	.	16b-|\	.	.	.	.	.	.	.	.	.	.	.	.	.	.	.	.	.	.	.	.	.
.	.	.	.	.	16b-/JJ)	.	16dd|\JJ	.	.	.	.	.	.	.	.	.	.	.	.	.	.	.	.	.	.	.	.	.
=10	=10	=10	=10	=10	=10	=10	=10	=10	=10	=10	=10	=10	=10	=10	=10	=10	=10	=10	=10	=10	=10	=10	=10	=10	=10	=10	=10	=10
4F\	.	.	4f\	.	8.a/L	.	(8.cc\L	.	.	.	8.cT\L	A-	.	.	.	.	.	.	.	.	.	.	.	.	.	.	.	.
.	.	.	.	.	32g/LL	.	32b-\LL	.	.	.	(32B-\LL	.	.	.	.	.	.	.	.	.	.	.	.	.	.	.	.	.
.	.	.	.	.	32a/JJJ	.	32cc\JJJ)	.	.	.	32c\JJJ)	.	.	.	.	.	.	.	.	.	.	.	.	.	.	.	.	.
4r	.	.	4r	.	(4b-/	.	4dd\	.	.	.	4d\	.	.	.	.	.	.	.	.	.	.	.	.	.	.	.	.	.
4BB-/	.	.	4B-/	.	4g/)	.	4b-\	.	.	.	4B-\	-gnus	.	.	.	.	.	.	.	.	.	.	.	.	.	.	.	.
!	!	!	!	!	!	!	!	!	!	!	!LO:LB:g=original	!	!	!	!	!	!	!	!	!	!	!	!	!	!	!	!	!
=11	=11	=11	=11	=11	=11	=11	=11	=11	=11	=11	=11	=11	=11	=11	=11	=11	=11	=11	=11	=11	=11	=11	=11	=11	=11	=11	=11	=11
4C/	.	.	4c\	.	(8f/L	.	(8a/L	.	.	.	8A/L	De-	.	.	.	.	.	.	.	.	.	.	.	.	.	.	.	.
.	.	.	.	.	8e/J)	.	8g/J)	.	.	.	8G/J	.	.	.	.	.	.	.	.	.	.	.	.	.	.	.	.	.
4CC/	.	.	4c\	.	4e/	.	4g/	.	.	.	4G/	-i	.	.	.	.	.	.	.	.	.	.	.	.	.	.	.	.
4EE/	.	.	4c\	.	(8f/L	.	8a|/L	.	.	.	(8A\L	qui	.	.	.	.	.	.	.	.	.	.	.	.	.	.	.	.
.	.	.	.	.	8g/J)	.	8b-|/J	.	.	.	8B-\J)	.	.	.	.	.	.	.	.	.	.	.	.	.	.	.	.	.
=12	=12	=12	=12	=12	=12	=12	=12	=12	=12	=12	=12	=12	=12	=12	=12	=12	=12	=12	=12	=12	=12	=12	=12	=12	=12	=12	=12	=12
4FF/	.	.	4c\	.	8g/L	.	8b-\L	.	.	.	8B-\L	tol-	.	.	.	.	.	.	.	.	.	.	.	.	.	.	.	.
.	.	.	.	.	8f/	.	8a\	.	.	.	8A\J	.	.	.	.	.	.	.	.	.	.	.	.	.	.	.	.	.
4r	.	.	4r	.	8e/	.	8g\	.	.	.	8G/	-lis	.	.	.	.	.	.	.	.	.	.	.	.	.	.	.	.
.	.	.	.	.	8f/J	.	8f\J	.	.	.	8F/	pec-	.	.	.	.	.	.	.	.	.	.	.	.	.	.	.	.
4BB-/	.	.	4d\	.	16g/LL	.	(16b-\LL	.	.	.	16B-\LL	-ca-	.	.	.	.	.	.	.	.	.	.	.	.	.	.	.	.
.	.	.	.	.	16a/	.	16cc\	.	.	.	16c\JJ	.	.	.	.	.	.	.	.	.	.	.	.	.	.	.	.	.
.	.	.	.	.	16b-/	.	16dd\)	.	.	.	16d\LL	-ta	.	.	.	.	.	.	.	.	.	.	.	.	.	.	.	.
.	.	.	.	.	16g/JJ	.	16b-|\JJ	.	.	.	16B-\JJ	.	.	.	.	.	.	.	.	.	.	.	.	.	.	.	.	.
!	!	!	!LO:LB:g=original	!	!	!	!	!	!	!	!	!	!	!	!	!	!	!	!	!	!	!	!	!	!	!	!	!
=13	=13	=13	=13	=13	=13	=13	=13	=13	=13	=13	=13	=13	=13	=13	=13	=13	=13	=13	=13	=13	=13	=13	=13	=13	=13	=13	=13	=13
!	!	!	!	!	!	!	!	!	!LO:TX:a:B:t=andante amoroso	!	!	!	!LO:N:vis=1	!	!	!	!	!LO:DY:b:t=fort:color=red	!	!	!	!	!LO:N:vis=1	!	!LO:N:vis=1	!	!LO:N:vis=1	!
4C/	.	.	4c\	.	(4f/	.	(4a/	.	2.r	.	4A\	mun-	2.r	.	2.r	.	4r	f	2.r	.	2.r	.	2.r	.	2.r	.	2.r	.
4CC/	.	.	8c|\L	.	4e/)	.	4g/)	.	.	.	4G/	-di	.	.	.	.	8r	.	.	.	.	.	.	.	.	.	.	.
.	.	.	8c|\	.	.	.	.	.	.	.	.	.	.	.	.	.	8c|/L	.	.	.	.	.	.	.	.	.	.	.
!LO:TX:b:t=Tutti:color=red	!	!	!	!	!	!LO:DY:b:t=fort:color=red	!	!	!	!	!	!	!	!	!	!	!	!	!	!	!	!	!	!	!	!	!	!
4r	.	.	8c|\	.	4r	f	4r	.	.	.	4r	.	.	.	.	.	8c|/	.	.	.	.	.	.	.	.	.	.	.
.	.	.	8c|\J	.	.	.	.	.	.	.	.	.	.	.	.	.	8c|/J	.	.	.	.	.	.	.	.	.	.	.
!	!	!	!	!	!	!	!LO:LB:g=original	!	!	!	!	!	!	!	!	!	!	!	!	!	!	!	!	!	!	!	!	!
=14	=14	=14	=14	=14	=14	=14	=14	=14	=14	=14	=14	=14	=14	=14	=14	=14	=14	=14	=14	=14	=14	=14	=14	=14	=14	=14	=14	=14
!	!	!	!	!LO:DY:b:t=forto:color=red	!	!	!	!LO:DY:b:t=fort:color=red	!	!	!	!	!	!	!LO:TX:t=P:problem:2\right:global	!	!	!	!	!LO:DY:b:t=forto:color=red	!	!LO:DY:b:t=forto:color=red	!	!LO:DY:b:t=forto:color=red	!	!LO:DY:b:t=forto:color=red	!	!LO:DY:b:t=forto:color=red
8C\L	7 5	.	8b-|\L	f	16g|\LL	.	(16bb-\LL	f	(4E\	par-	2c\	par-	(4b-\	par-	2ee\	par-	2c/	.	2g\	f	(2ee\	f	(2bb-\	f	2ee\	f	2bb-\	f
.	.	.	.	.	16cc|\	.	16gg\)	.	.	.	.	.	.	.	.	.	.	.	.	.	.	.	.	.	.	.	.	.
8G\	.	.	8b-|\	.	16g|\	.	16ee|\	.	.	.	.	.	.	.	.	.	.	.	.	.	.	.	.	.	.	.	.	.
.	.	.	.	.	16cc|\JJ	.	16cc|\JJ	.	.	.	.	.	.	.	.	.	.	.	.	.	.	.	.	.	.	.	.	.
8E\	.	.	8g|\	.	16e|\LL	.	(16b-/LL	.	4C\)	.	.	.	4g\)	.	.	.	.	.	.	.	.	.	.	.	.	.	.	.
.	.	.	.	.	16cc|\	.	16g/)	.	.	.	.	.	.	.	.	.	.	.	.	.	.	.	.	.	.	.	.	.
8C\	.	.	8g|\	.	16e|\	.	(16b-/	.	.	.	.	.	.	.	.	.	.	.	.	.	.	.	.	.	.	.	.	.
.	.	.	.	.	16cc|\JJ	.	16g/JJ)	.	.	.	.	.	.	.	.	.	.	.	.	.	.	.	.	.	.	.	.	.
8F|\	3	.	8a|\	.	16f|\LL	.	(16a\LL	.	8F\L	-ce	4c\	-ce	4a\	-ce	4ff\	-ce	4f\	.	4a\	.	4ff\)	.	4aa\)	.	4ff\	.	4aa\	.
.	.	.	.	.	16cc|\	.	16cc\)	.	.	.	.	.	.	.	.	.	.	.	.	.	.	.	.	.	.	.	.	.
8A|\J	.	.	8f|\J	.	16a|\	.	16ff|\	.	8A\J	.	.	.	.	.	.	.	.	.	.	.	.	.	.	.	.	.	.	.
.	.	.	.	.	16cc|\JJ	.	16aa|\JJ	.	.	.	.	.	.	.	.	.	.	.	.	.	.	.	.	.	.	.	.	.
=15	=15	=15	=15	=15	=15	=15	=15	=15	=15	=15	=15	=15	=15	=15	=15	=15	=15	=15	=15	=15	=15	=15	=15	=15	=15	=15	=15	=15
8C\L	.	.	8b-\L	.	16g|\LL	.	(16bb-\LL	.	(4E\	no-	2c\	no-	(4b-\	no-	2ee\	no-	2c/	.	2g\	.	(2ee\	.	(2bb-\	.	2ee\	.	2bb-\	.
.	.	.	.	.	16cc|\	.	16gg\)	.	.	.	.	.	.	.	.	.	.	.	.	.	.	.	.	.	.	.	.	.
8G\	.	.	8b-\	.	16g|\	.	16ee|\	.	.	.	.	.	.	.	.	.	.	.	.	.	.	.	.	.	.	.	.	.
.	.	.	.	.	16cc|\JJ	.	16cc|\JJ	.	.	.	.	.	.	.	.	.	.	.	.	.	.	.	.	.	.	.	.	.
!	!	!	!	!	!LO:LB:g=original	!	!	!	!	!	!	!	!	!	!	!	!	!	!	!	!	!	!	!	!	!	!	!
8E\	.	.	8g\	.	16e\LL	.	(16b-/LL	.	4C\)	.	.	.	4g\)	.	.	.	.	.	.	.	.	.	.	.	.	.	.	.
.	.	.	.	.	16cc\	.	16g/)	.	.	.	.	.	.	.	.	.	.	.	.	.	.	.	.	.	.	.	.	.
8C\	.	.	8g\	.	16e\	.	(16b-/	.	.	.	.	.	.	.	.	.	.	.	.	.	.	.	.	.	.	.	.	.
.	.	.	.	.	16cc\JJ	.	16g/JJ)	.	.	.	.	.	.	.	.	.	.	.	.	.	.	.	.	.	.	.	.	.
8F|\	.	.	8a\	.	16f\LL	.	(16a\LL	.	4F\	-bis	4c\	-bis	4a\	-bis	4ff\	-bis	4f\	.	4a\	.	4ff\)	.	4aa\)	.	4ff\	.	4aa\	.
.	.	.	.	.	16cc\	.	16cc\)	.	.	.	.	.	.	.	.	.	.	.	.	.	.	.	.	.	.	.	.	.
8A|\J	.	.	8f\J	.	16a\	.	16ff|\	.	.	.	.	.	.	.	.	.	.	.	.	.	.	.	.	.	.	.	.	.
.	.	.	.	.	16cc\JJ	.	16aa|\JJ	.	.	.	.	.	.	.	.	.	.	.	.	.	.	.	.	.	.	.	.	.
=16	=16	=16	=16	=16	=16	=16	=16	=16	=16	=16	=16	=16	=16	=16	=16	=16	=16	=16	=16	=16	=16	=16	=16	=16	=16	=16	=16	=16
*tremolo	*	*	*	*	*	*	*	*	*	*	*	*	*	*	*	*	*	*	*	*	*	*	*	*	*	*	*	*
8BB-/L	3 5	.	8B-/	.	8f/	.	(16dd\LL	.	2B-\	par-	2F/	par-	2f\	par-	2dd\	par-	4.f\	.	4.f\	.	2.b-\	.	2.dd\	.	2.b-\	.	(16dd\LL	.
.	.	.	.	.	.	.	16cc#X\	.	.	.	.	.	.	.	.	.	.	.	.	.	.	.	.	.	.	.	16cc#X\	.
8BB-/	.	.	4B-/	.	4f/	.	16dd\	.	.	.	.	.	.	.	.	.	.	.	.	.	.	.	.	.	.	.	16dd\	.
.	.	.	.	.	.	.	16cc#\JJ)	.	.	.	.	.	.	.	.	.	.	.	.	.	.	.	.	.	.	.	16cc#\JJ	.
8BB-/	.	.	.	.	.	.	(16dd\LL	.	.	.	.	.	.	.	.	.	.	.	.	.	.	.	.	.	.	.	16dd\LL	.
.	.	.	.	.	.	.	16cc#\	.	.	.	.	.	.	.	.	.	.	.	.	.	.	.	.	.	.	.	16cc#\	.
8BB-/	.	.	4B-/	.	8f/	.	16dd\	.	.	.	.	.	.	.	.	.	8f\L	.	8f|\	.	.	.	.	.	.	.	16dd\	.
.	.	.	.	.	.	.	16cc#\JJ)	.	.	.	.	.	.	.	.	.	.	.	.	.	.	.	.	.	.	.	16cc#\JJ	.
8BB-/	.	.	.	.	8f/L	.	(16dd\LL	.	4B-\	-ce	4F/	-ce	4f\	-ce	4dd\	-ce	8f\	.	8f|\L	.	.	.	.	.	.	.	16dd\LL)	.
.	.	.	.	.	.	.	16cc#\)	.	.	.	.	.	.	.	.	.	.	.	.	.	.	.	.	.	.	.	16cc#\	.
8BB-/J	.	.	8B-/	.	8f/J	.	16dd|\	.	.	.	.	.	.	.	.	.	8f\J	.	8f|\J	.	.	.	.	.	.	.	16dd|\	.
.	.	.	.	.	.	.	16dd|\JJ	.	.	.	.	.	.	.	.	.	.	.	.	.	.	.	.	.	.	.	16dd|\JJ	.
=17	=17	=17	=17	=17	=17	=17	=17	=17	=17	=17	=17	=17	=17	=17	=17	=17	=17	=17	=17	=17	=17	=17	=17	=17	=17	=17	=17	=17
8BB-/L	4 6	.	8B-/	.	8g/	.	(16ee\LL	.	2B-\	no-	2G/	no-	2g\	no-	2ee\	no-	4.g\	.	4.g\	.	2.b-\	.	2.ee\	.	2.b-\	.	(16ee\LL	.
.	.	.	.	.	.	.	16dd\)	.	.	.	.	.	.	.	.	.	.	.	.	.	.	.	.	.	.	.	16dd\	.
8BB-/	.	.	4B-/	.	4g/	.	(16ee\	.	.	.	.	.	.	.	.	.	.	.	.	.	.	.	.	.	.	.	16ee\	.
.	.	.	.	.	.	.	16dd\JJ)	.	.	.	.	.	.	.	.	.	.	.	.	.	.	.	.	.	.	.	16dd\JJ	.
8BB-/	.	.	.	.	.	.	(16ee\LL	.	.	.	.	.	.	.	.	.	.	.	.	.	.	.	.	.	.	.	16ee\LL	.
.	.	.	.	.	.	.	16dd\	.	.	.	.	.	.	.	.	.	.	.	.	.	.	.	.	.	.	.	16dd\	.
8BB-/	.	.	4B-/	.	8g/	.	16ee\	.	.	.	.	.	.	.	.	.	8g\L	.	16g\LL	.	.	.	.	.	.	.	16ee\	.
.	.	.	.	.	.	.	16dd\JJ)	.	.	.	.	.	.	.	.	.	.	.	16g\J	.	.	.	.	.	.	.	16dd\JJ	.
8BB-/	.	.	.	.	8g/L	.	(16ee\LL	.	4B-\	-bis	4G/	-bis	4g\	-bis	4ee\	-bis	8g\	.	8g\	.	.	.	.	.	.	.	16ee\LL)	.
.	.	.	.	.	.	.	16dd\)	.	.	.	.	.	.	.	.	.	.	.	.	.	.	.	.	.	.	.	16dd\	.
8BB-/J	.	.	8B-/	.	8g/J	.	16ee|\	.	.	.	.	.	.	.	.	.	8g\J	.	8g\J	.	.	.	.	.	.	.	16ee|\	.
.	.	.	.	.	.	.	16ee|\JJ	.	.	.	.	.	.	.	.	.	.	.	.	.	.	.	.	.	.	.	16ee|\JJ	.
=18	=18	=18	=18	=18	=18	=18	=18	=18	=18	=18	=18	=18	=18	=18	=18	=18	=18	=18	=18	=18	=18	=18	=18	=18	=18	=18	=18	=18
*Xtremolo	*	*	*	*	*	*	*	*	*	*	*	*	*	*	*	*	*	*	*	*	*	*	*	*	*	*	*	*
8AA/L	6 3	.	8A/L	.	8cc\	.	(16ff\LL	.	4A\	Do-	4c\	Do-	4a\	do-	4ff\	Do-	4f\	.	4a\	.	4a/	.	4ff\	.	4a/	.	(16ff\LL	.
.	.	.	.	.	.	.	16ee\)	.	.	.	.	.	.	.	.	.	.	.	.	.	.	.	.	.	.	.	16ee\)	.
8AA/	.	.	8a\	.	4cc\	.	16ff|\	.	.	.	.	.	.	.	.	.	.	.	.	.	.	.	.	.	.	.	16ff|\	.
.	.	.	.	.	.	.	16ff|\JJ	.	.	.	.	.	.	.	.	.	.	.	.	.	.	.	.	.	.	.	16ff|\JJ	.
!	!	!	!	!	!	!	!LO:LB:g=original	!	!	!	!	!	!	!	!	!	!	!	!	!	!	!	!	!	!	!	!	!
8E/	3	.	8b-\	.	.	.	(16gg\LL	.	4E\	-mi-	4c\	-mi-	4b-\	-mi-	4gg\	-mi-	4r	.	4r	.	4ee\	.	4gg\	.	(16gg\LL	.	(16bb-\LL	.
.	.	.	.	.	.	.	16ff\)	.	.	.	.	.	.	.	.	.	.	.	.	.	.	.	.	.	16ff\)	.	16aa\)	.
8E/	.	.	8b-\	.	8cc\	.	16gg|\	.	.	.	.	.	.	.	.	.	.	.	.	.	.	.	.	.	16gg|\	.	16bb-|\	.
.	.	.	.	.	.	.	16gg|\JJ	.	.	.	.	.	.	.	.	.	.	.	.	.	.	.	.	.	16gg|\JJ	.	16bb-|\JJ	.
8F/	3	.	8a\	.	8cc\L	.	(16aa\LL	.	4F\	-ne	4A\	-ne	4cc\	-ne	4aa\	-ne	4r	.	4r	.	4ff\	.	4aa\	.	(16ff\LL	.	(16aa\LL	.
.	.	.	.	.	.	.	16gg\)	.	.	.	.	.	.	.	.	.	.	.	.	.	.	.	.	.	16ee\)	.	16gg\)	.
8F/J	.	.	8c\J	.	8ff\J	.	16aa|\	.	.	.	.	.	.	.	.	.	.	.	.	.	.	.	.	.	16ff|\	.	16aa|\	.
.	.	.	.	.	.	.	16aa|\JJ	.	.	.	.	.	.	.	.	.	.	.	.	.	.	.	.	.	16ff|\JJ	.	16aa|\JJ	.
=19	=19	=19	=19	=19	=19	=19	=19	=19	=19	=19	=19	=19	=19	=19	=19	=19	=19	=19	=19	=19	=19	=19	=19	=19	=19	=19	=19	=19
.	.	.	.	.	16qqee-X/	.	16qqccc/	.	.	.	.	.	.	.	.	.	.	.	.	.	.	.	.	.	16qqee-X/	.	16qqccc/	.
8B-\L	6	.	8d|\L	.	(8dd\L	.	(8bb-\L	.	4r	.	4r	.	4r	.	4r	.	4r	.	4r	.	4r	.	4r	.	8dd\L	.	8bb-\L	.
8B-\	.	.	8d|\J	.	16cc\L	.	16aa\L	.	.	.	.	.	.	.	.	.	.	.	.	.	.	.	.	.	16cc\L	.	16aa\L	.
.	.	.	.	.	16b-\JJ)	.	16gg\JJ)	.	.	.	.	.	.	.	.	.	.	.	.	.	.	.	.	.	16b-\JJ	.	16gg\JJ	.
8c\	4	.	4c\	.	4a/	.	4ff\	.	4c\	par-	4c\	par-	4a\	par-	4ff\	par-	4f\	.	4a\	.	4a/	.	4ff\	.	4a/	.	4ff\	.
8c\	.	.	.	.	.	.	.	.	.	.	.	.	.	.	.	.	.	.	.	.	.	.	.	.	.	.	.	.
!	!	!	!	!	!	!LO:DY:b:t=piano:color=red	!	!	!	!	!LO:LB:g=original	!	!	!	!	!	!	!	!	!	!	!	!	!	!	!	!	!
8C/	3	.	4c\	.	4g/	p	4ee\	.	4C/	-ce	4A\	-ce	4g\	-ce	4ee\	-ce	4c/	.	4g\	.	4g/	.	4ee\	.	4g/	.	4ee\	.
8C/J	.	.	.	.	.	.	.	.	.	.	.	.	.	.	.	.	.	.	.	.	.	.	.	.	.	.	.	.
!	!	!	!	!	!	!	!	!	!LO:LB:g=original	!	!	!	!	!	!	!	!LO:LB:g=original	!	!	!	!	!	!	!	!	!	!	!
=20	=20	=20	=20	=20	=20	=20	=20	=20	=20	=20	=20	=20	=20	=20	=20	=20	=20	=20	=20	=20	=20	=20	=20	=20	=20	=20	=20	=20
!LO:TX:a:t=1	!	!	!	!LO:DY:b:t=piano:color=red	!	!	!	!LO:DY:b:t=pia:color=red	!LO:TX:a:t=1	!	!LO:TX:a:t=1	!	!LO:TX:a:t=1	!	!LO:TX:a:t=1	!	!LO:TX:a:t=1	!	!LO:TX:a:t=1	!	!LO:TX:a:t=1	!	!LO:TX:a:t=1	!	!LO:TX:a:t=1	!	!LO:TX:a:t=1	!
2.r	.	.	8a|\L	p	8ff|\L	.	8aa|\L	p	2.r	.	2.r	.	2.r	.	2.r	.	2.r	.	2.r	.	2.r	.	2.r	.	2.r	.	2.r	.
.	.	.	8g|\	.	8ee|\	.	8gg|\	.	.	.	.	.	.	.	.	.	.	.	.	.	.	.	.	.	.	.	.	.
.	.	.	8f|\	.	8dd|\	.	8ff|\	.	.	.	.	.	.	.	.	.	.	.	.	.	.	.	.	.	.	.	.	.
.	.	.	8e|\	.	8cc|\	.	8ee|\	.	.	.	.	.	.	.	.	.	.	.	.	.	.	.	.	.	.	.	.	.
.	.	.	8d|\	.	8b-|\	.	8dd|\	.	.	.	.	.	.	.	.	.	.	.	.	.	.	.	.	.	.	.	.	.
.	.	.	8c|\J	.	8a|\J	.	8cc|\J	.	.	.	.	.	.	.	.	.	.	.	.	.	.	.	.	.	.	.	.	.
!LO:LB:g=original	!	!	!	!	!	!	!	!	!	!	!	!	!	!	!	!	!	!	!LO:LB:g=original	!	!	!	!	!	!	!	!	!
=21	=21	=21	=21	=21	=21	=21	=21	=21	=21	=21	=21	=21	=21	=21	=21	=21	=21	=21	=21	=21	=21	=21	=21	=21	=21	=21	=21	=21
4r	.	.	8B-/L	.	8g|/L	.	8b-|/L	.	4r	.	4r	.	4r	.	4r	.	4r	.	4r	.	4r	.	4r	.	4r	.	4r	.
.	.	.	8A/	.	8f|/	.	8a|/	.	.	.	.	.	.	.	.	.	.	.	.	.	.	.	.	.	.	.	.	.
4r	.	.	8G/J	.	8e|/J	.	8g|/J	.	4r	.	4r	.	4r	.	4r	.	4r	.	4r	.	4r	.	4r	.	4r	.	4r	.
.	.	.	8r	.	8r	.	8r	.	.	.	.	.	.	.	.	.	.	.	.	.	.	.	.	.	.	.	.	.
!LO:N:vis=16	!	!LO:DY:b:color=red	!	!LO:DY:b:color=red	!	!	!	!	!	!	!	!	!	!	!	!	!	!	!	!	!	!	!	!	!LO:LB:g=original	!	!	!
8r	.	f	8r	f	8r	.	8r	.	8r	.	8r	.	8r	.	8r	.	8r	.	8r	.	8r	.	8r	.	8r	.	8r	.
!LO:N:vis=16	!	!	!	!	!	!LO:DY:b:t=fort:color=red	!	!LO:DY:b:t=fort:color=red	!	!	!	!	!	!	!	!	!	!	!	!	!	!	!	!	!	!	!	!
8C/	.	.	8e\	.	8gg\	f	8bb-|\	f	(8E\	no-	[8c\	no-	8g\L	no-	8ee\L	no-	8c/	.	8g\L	.	8b-\	.	8ee\	.	8gg\	.	8bb-\	.
!	!	!	!	!	!	!	!	!	!	!	!	!	!	!	!	!	!	!	!	!	!	!	!LO:LB:g=original	!	!	!	!LO:LB:g=original	!
=22	=22	=22	=22	=22	=22	=22	=22	=22	=22	=22	=22	=22	=22	=22	=22	=22	=22	=22	=22	=22	=22	=22	=22	=22	=22	=22	=22	=22
8F\L	3	.	8c\L	.	(16ff\LL	.	(16aa\LL	.	8F\)	.	8c\]	.	8a\J	.	8ff\J	.	8f\	.	8a\J	.	(8a/L	.	8ff\L	.	(8ff\L	.	(8aa\L	.
.	.	.	.	.	16a\)	.	16ff\)	.	.	.	.	.	.	.	.	.	.	.	.	.	.	.	.	.	.	.	.	.
!	!	!	!	!	!	!	!	!	!	!	!	!	!LO:LB:g=original	!	!	!	!	!	!	!	!	!	!	!	!	!	!	!
8BB-\J	6	.	8d\J	.	16b-|\	.	16dd|\	.	8B-\	-bis	8d\	-bis	8b-\	-bis	(16dd\LL	-bis	8r	.	8r	.	8b-/J)	.	8gg\J	.	8gg\J)	.	8gg\J)	.
.	.	.	.	.	16b-|\JJ	.	16gg|\JJ	.	.	.	.	.	.	.	16gg\JJ)	.	.	.	.	.	.	.	.	.	.	.	.	.
!	!	!	!	!	!	!	!	!	!	!	!	!	!	!	!	!	!	!	!	!	!LO:LB:g=original	!	!	!	!	!	!	!
4C/	.	.	4c\	.	4a/	.	4ff\	.	4c\	Do-	4c\	Do-	4a\	do-	4ff\	Do-	4f\	.	4a\	.	4a/	.	4ff\	.	4aa\	.	4ff\	.
4CC/	.	.	4c\	.	4g/	.	4ee\	.	4C/	-mi-	4c\	-mi-	4g\	-mi-	4ee\	-mi-	4c/	.	4g\	.	4g/	.	4ee\	.	4gg\	.	4ee\	.
!	!	!	!	!	!LO:LB:g=original	!	!	!	!	!	!	!	!	!	!	!	!	!	!	!	!	!	!	!	!	!	!	!
=23	=23	=23	=23	=23	=23	=23	=23	=23	=23	=23	=23	=23	=23	=23	=23	=23	=23	=23	=23	=23	=23	=23	=23	=23	=23	=23	=23	=23
!	!	!	!	!	!	!LO:DY:b:color=red	!	!LO:DY:b:color=red	!	!	!	!	!	!	!	!	!	!	!	!	!	!	!	!	!	!	!	!
4FF/	.	.	4c\	.	8a/L	pp	8ff\L	pp	4F\	-ne	4c\	-ne	4a\	-ne	4ff\	-ne	4A/	.	4f\	.	4a/	.	4ff\	.	4ff\	.	4ff\	.
.	.	.	.	.	(8f/	.	8a/	.	.	.	.	.	.	.	.	.	.	.	.	.	.	.	.	.	.	.	.	.
!	!	!	!	!	!	!	!	!	!	!	!	!	!	!	!LO:LB:g=original	!	!	!	!	!	!	!	!	!	!	!	!	!
4r	.	.	4r	.	8d/	.	(8b-/	.	4r	.	4r	.	4r	.	4r	.	4r	.	4r	.	4r	.	4r	.	4r	.	4r	.
.	.	.	.	.	8B-/)	.	8g/	.	.	.	.	.	.	.	.	.	.	.	.	.	.	.	.	.	.	.	.	.
!	!	!	!	!	!	!	!	!	!LO:TX:a:t=Tutti.	!	!	!	!	!	!	!	!	!	!	!	!	!	!	!	!	!	!	!
!	!	!	!	!	!	!	!	!	!LO:TX:a:t=Tut&colon;	!	!	!	!	!	!	!	!	!	!	!	!	!	!	!	!	!	!	!
4r	.	.	4r	.	8A/	.	8f/)	.	4r	.	4r	.	4r	.	4r	.	4r	.	4r	.	4r	.	4r	.	4r	.	4r	.
.	.	.	.	.	8G/J	.	8e/J	.	.	.	.	.	.	.	.	.	.	.	.	.	.	.	.	.	.	.	.	.
!	!	!	!LO:LB:g=original	!	!	!	!	!	!	!	!	!	!	!	!	!	!	!	!	!	!	!	!	!	!	!	!	!
=24	=24	=24	=24	=24	=24	=24	=24	=24	=24	=24	=24	=24	=24	=24	=24	=24	=24	=24	=24	=24	=24	=24	=24	=24	=24	=24	=24	=24
!	!	!	!	!	!	!	!	!	!	!	!LO:TX:a:t=8	!	!LO:TX:a:t=8	!	!LO:TX:a:t=8	!	!LO:TX:a:t=8	!	!LO:TX:a:t=7	!	!LO:TX:a:t=8	!	!LO:TX:a:t=8	!	!LO:TX:a:t=8	!	!LO:TX:a:t=8	!
!	!	!	!	!LO:DY:b:t=pia:color=red	!	!LO:DY:b:t=pia:color=red	!	!LO:DY:b:color=red	!	!	!LO:N:vis=00	!	!LO:N:vis=00	!	!LO:N:vis=00	!	!LO:N:vis=00	!	!LO:N:vis=00	!	!LO:N:vis=00	!	!LO:N:vis=00	!	!LO:N:vis=00	!	!LO:N:vis=00	!
8r	.	.	8r	p	8r	p	(4cc\	p	4c\	A-	0.r	.	0.r	.	0.r	.	0.r	.	0.r	.	0.r	.	0.r	.	0.r	.	0.r	.
!	!	!LO:DY:b:t=pia:color=red	!	!	!	!	!	!	!	!	!	!	!	!	!	!	!	!	!	!	!	!	!	!	!	!	!	!
8F\L	3	p	(8c|\L	.	(8a|/L	.	.	.	.	.	.	.	.	.	.	.	.	.	.	.	.	.	.	.	.	.	.	.
.	.	.	.	.	.	.	.	.	(16qqd/LL	.	.	.	.	.	.	.	.	.	.	.	.	.	.	.	.	.	.	.
.	.	.	.	.	.	.	.	.	16qqc/JJ)	.	.	.	.	.	.	.	.	.	.	.	.	.	.	.	.	.	.	.
8F\	.	.	8c|\	.	8a|/	.	4a/)	.	4A\	.	.	.	.	.	.	.	.	.	.	.	.	.	.	.	.	.	.	.
8F\	.	.	8c|\	.	8a|/	.	.	.	.	.	.	.	.	.	.	.	.	.	.	.	.	.	.	.	.	.	.	.
8F\	.	.	8c|\	.	8a|/	.	4f|/	.	4F\	-gnus	.	.	.	.	.	.	.	.	.	.	.	.	.	.	.	.	.	.
8F\J	.	.	8c|\J)	.	8a|/J)	.	.	.	.	.	.	.	.	.	.	.	.	.	.	.	.	.	.	.	.	.	.	.
=25	=25	=25	=25	=25	=25	=25	=25	=25	=25	=25	=25	=25	=25	=25	=25	=25	=25	=25	=25	=25	=25	=25	=25	=25	=25	=25	=25	=25
!LO:TX:b:i:t=Solo:color=red	!	!	!	!	!	!	!	!	!	!	!	!	!	!	!	!	!	!	!	!	!	!	!	!	!	!	!	!
8r	.	.	8r	.	8r	.	(8e/L	.	8E\L	de-	.	.	.	.	.	.	.	.	.	.	.	.	.	.	.	.	.	.
8G\L	.	.	(8c'\	.	(8b-|\L	.	8g/J)	.	8G\J	.	.	.	.	.	.	.	.	.	.	.	.	.	.	.	.	.	.	.
*	*	*	*tremolo	*	*	*	*	*	*	*	*	*	*	*	*	*	*	*	*	*	*	*	*	*	*	*	*	*
!	!	!	!LO:TX:t=P:problem:4x staccato	!	!	!	!	!	!	!	!	!	!	!	!	!	!	!	!	!	!	!	!	!	!	!	!	!
8G\	.	.	8c'\L	.	8b-|\	.	4b-\	.	4B-\	-i	.	.	.	.	.	.	.	.	.	.	.	.	.	.	.	.	.	.
8G\	.	.	8c'\	.	8b-|\	.	.	.	.	.	.	.	.	.	.	.	.	.	.	.	.	.	.	.	.	.	.	.
8E\	.	.	8c'\	.	8g|\	.	8r	.	8r	.	.	.	.	.	.	.	.	.	.	.	.	.	.	.	.	.	.	.
8E\J	.	.	8c'\)J	.	8g|\J)	.	8b-|\	.	8B-\	qui	.	.	.	.	.	.	.	.	.	.	.	.	.	.	.	.	.	.
!	!	!	!	!	!	!	!LO:LB:g=original	!	!	!	!	!	!	!	!	!	!	!	!	!	!	!	!	!	!	!	!	!
*	*	*	*Xtremolo	*	*	*	*	*	*	*	*	*	*	*	*	*	*	*	*	*	*	*	*	*	*	*	*	*
=26	=26	=26	=26	=26	=26	=26	=26	=26	=26	=26	=26	=26	=26	=26	=26	=26	=26	=26	=26	=26	=26	=26	=26	=26	=26	=26	=26	=26
4F\	.	.	4c\	.	8g/	.	(8b-/	.	8B-\L	tol-	.	.	.	.	.	.	.	.	.	.	.	.	.	.	.	.	.	.
.	.	.	.	.	4f/	.	4a/	.	8A\J	.	.	.	.	.	.	.	.	.	.	.	.	.	.	.	.	.	.	.
4BB-/	.	.	4d\	.	.	.	.	.	8A\	-lis	.	.	.	.	.	.	.	.	.	.	.	.	.	.	.	.	.	.
.	.	.	.	.	8B-/	.	8g/)	.	8G\	pec-	.	.	.	.	.	.	.	.	.	.	.	.	.	.	.	.	.	.
8C/L	.	.	8c\L	.	(16B-/LL	.	(16g/LL	.	(16G\LL	-ca-	.	.	.	.	.	.	.	.	.	.	.	.	.	.	.	.	.	.
.	.	.	.	.	16A/)	.	16f/)	.	16F\)	.	.	.	.	.	.	.	.	.	.	.	.	.	.	.	.	.	.	.
8CC/J	.	.	8c\J	.	(16A/	.	(16f/	.	(16F\	.	.	.	.	.	.	.	.	.	.	.	.	.	.	.	.	.	.	.
.	.	.	.	.	16G/JJ)	.	16e/JJ)	.	16E\JJ)	.	.	.	.	.	.	.	.	.	.	.	.	.	.	.	.	.	.	.
!	!	!	!	!	!	!	!	!	!LO:LB:g=original	!	!	!	!	!	!	!	!	!	!	!	!	!	!	!	!	!	!	!
=27	=27	=27	=27	=27	=27	=27	=27	=27	=27	=27	=27	=27	=27	=27	=27	=27	=27	=27	=27	=27	=27	=27	=27	=27	=27	=27	=27	=27
4FF/	.	.	4c\	.	8A/	.	(16f/LL	.	4F\	-ta	.	.	.	.	.	.	.	.	.	.	.	.	.	.	.	.	.	.
.	.	.	.	.	.	.	16c/	.	.	.	.	.	.	.	.	.	.	.	.	.	.	.	.	.	.	.	.	.
.	.	.	.	.	8r	.	16d/	.	.	.	.	.	.	.	.	.	.	.	.	.	.	.	.	.	.	.	.	.
.	.	.	.	.	.	.	16e/JJ)	.	.	.	.	.	.	.	.	.	.	.	.	.	.	.	.	.	.	.	.	.
4r	.	.	4r	.	8r	.	(16f/LL	.	4r	.	.	.	.	.	.	.	.	.	.	.	.	.	.	.	.	.	.	.
.	.	.	.	.	.	.	16a/)	.	.	.	.	.	.	.	.	.	.	.	.	.	.	.	.	.	.	.	.	.
.	.	.	.	.	8e/	.	(16g/	.	.	.	.	.	.	.	.	.	.	.	.	.	.	.	.	.	.	.	.	.
.	.	.	.	.	.	.	16b-/JJ)	.	.	.	.	.	.	.	.	.	.	.	.	.	.	.	.	.	.	.	.	.
4r	.	.	4r	.	8f/L	.	(16a/LL	.	4r	.	.	.	.	.	.	.	.	.	.	.	.	.	.	.	.	.	.	.
.	.	.	.	.	.	.	16cc/)	.	.	.	.	.	.	.	.	.	.	.	.	.	.	.	.	.	.	.	.	.
.	.	.	.	.	8g/J	.	16b-|/	.	.	.	.	.	.	.	.	.	.	.	.	.	.	.	.	.	.	.	.	.
.	.	.	.	.	.	.	16dd|/JJ	.	.	.	.	.	.	.	.	.	.	.	.	.	.	.	.	.	.	.	.	.
=28	=28	=28	=28	=28	=28	=28	=28	=28	=28	=28	=28	=28	=28	=28	=28	=28	=28	=28	=28	=28	=28	=28	=28	=28	=28	=28	=28	=28
!	!	!	!	!	!	!	!	!	!LO:TX:a:t=Solo	!	!LO:N:vis=00	!	!LO:N:vis=00	!	!LO:N:vis=00	!	!LO:N:vis=00	!	!LO:N:vis=0	!	!LO:N:vis=00	!	!LO:N:vis=00	!	!LO:N:vis=00	!	!LO:N:vis=00	!
8r	.	.	8r	.	8r	.	(4cc\	.	(<4c\	A-	0.r	.	0.r	.	0.r	.	0.r	.	1.r	.	0.r	.	0.r	.	0.r	.	0.r	.
8F\	.	.	(8c'\	.	(8a|/L	.	.	.	.	.	.	.	.	.	.	.	.	.	.	.	.	.	.	.	.	.	.	.
.	.	.	.	.	.	.	.	.	16qqd/LL	.	.	.	.	.	.	.	.	.	.	.	.	.	.	.	.	.	.	.
*tremolo	*	*	*tremolo	*	*	*	*	*	*	*	*	*	*	*	*	*	*	*	*	*	*	*	*	*	*	*	*	*
!	!	!	!LO:TX:t=P:problem:4x staccato	!	!	!	!	!	!	!	!	!	!	!	!	!	!	!	!	!	!	!	!	!	!	!	!	!
.	.	.	.	.	.	.	.	.	16qqc/JJ)	.	.	.	.	.	.	.	.	.	.	.	.	.	.	.	.	.	.	.
8F\L	.	.	8c'\L	.	8a|/	.	4a\)	.	4A\	.	.	.	.	.	.	.	.	.	.	.	.	.	.	.	.	.	.	.
8F\	.	.	8c'\	.	8a|/	.	.	.	.	.	.	.	.	.	.	.	.	.	.	.	.	.	.	.	.	.	.	.
8F\	.	.	8c'\	.	8a|/	.	4f/	.	4F\	-gnus	.	.	.	.	.	.	.	.	.	.	.	.	.	.	.	.	.	.
8F\J	.	.	8c'\)J	.	8a|/J)	.	.	.	.	.	.	.	.	.	.	.	.	.	.	.	.	.	.	.	.	.	.	.
=29	=29	=29	=29	=29	=29	=29	=29	=29	=29	=29	=29	=29	=29	=29	=29	=29	=29	=29	=29	=29	=29	=29	=29	=29	=29	=29	=29	=29
8r	.	.	8r	.	8r	.	8e/L	.	8E\L	de-	.	.	.	.	.	.	.	.	.	.	.	.	.	.	.	.	.	.
8G\L	.	.	(8c'\	.	8b-|/L	.	8g/J	.	8G\J	-i	.	.	.	.	.	.	.	.	.	.	.	.	.	.	.	.	.	.
!	!	!	!LO:TX:t=P:problem:4x staccato	!	!	!	!	!	!	!	!	!	!	!	!	!	!	!	!	!	!	!	!	!	!	!	!	!
8G\	.	.	8c'\L	.	8b-|/	.	4b-\	.	4B-\	.	.	.	.	.	.	.	.	.	.	.	.	.	.	.	.	.	.	.
8G\	.	.	8c'\	.	8b-|/	.	.	.	.	.	.	.	.	.	.	.	.	.	.	.	.	.	.	.	.	.	.	.
8E\	.	.	8c'\	.	8g|/	.	8r	.	8r	.	.	.	.	.	.	.	.	.	.	.	.	.	.	.	.	.	.	.
8E\J	.	.	8c'\)J	.	8g|/J	.	8b-\	.	8B-\	qui	.	.	.	.	.	.	.	.	.	.	.	.	.	.	.	.	.	.
*	*	*	*Xtremolo	*	*	*	*	*	*	*	*	*	*	*	*	*	*	*	*	*	*	*	*	*	*	*	*	*
=30	=30	=30	=30	=30	=30	=30	=30	=30	=30	=30	=30	=30	=30	=30	=30	=30	=30	=30	=30	=30	=30	=30	=30	=30	=30	=30	=30	=30
4F\	.	.	4c\	.	(8g/L	.	(8b-/L	.	8B-\L	tol-	.	.	.	.	.	.	.	.	2.r	.	.	.	.	.	.	.	.	.
.	.	.	.	.	8f/	.	8a/	.	8A\J	.	.	.	.	.	.	.	.	.	.	.	.	.	.	.	.	.	.	.
4r	.	.	4r	.	8e/	.	8g/	.	8G\	-lis	.	.	.	.	.	.	.	.	.	.	.	.	.	.	.	.	.	.
.	.	.	.	.	8f/J)	.	8f/J)	.	8F\	pec-	.	.	.	.	.	.	.	.	.	.	.	.	.	.	.	.	.	.
4BB-/	.	.	4d\	.	(16g/LL	.	(16b-\LL	.	16B-\LL	-ca-	.	.	.	.	.	.	.	.	.	.	.	.	.	.	.	.	.	.
.	.	.	.	.	16a/	.	16cc\	.	16c\JJ	.	.	.	.	.	.	.	.	.	.	.	.	.	.	.	.	.	.	.
.	.	.	.	.	16b-/	.	16dd\	.	16d\LL	-ta	.	.	.	.	.	.	.	.	.	.	.	.	.	.	.	.	.	.
.	.	.	.	.	16g/JJ)	.	16b-\JJ)	.	16B-\JJ	.	.	.	.	.	.	.	.	.	.	.	.	.	.	.	.	.	.	.
!	!	!	!	!	!LO:LB:g=original	!	!	!	!	!	!	!	!	!	!	!	!	!	!	!	!	!	!	!	!	!	!	!
=31	=31	=31	=31	=31	=31	=31	=31	=31	=31	=31	=31	=31	=31	=31	=31	=31	=31	=31	=31	=31	=31	=31	=31	=31	=31	=31	=31	=31
4C/	.	.	4c\	.	4f/	.	4a/	.	4A\	mun-	.	.	.	.	.	.	.	.	4r	.	.	.	.	.	.	.	.	.
.	.	.	.	.	.	.	16qqg/LL	.	16qqG/LL	.	.	.	.	.	.	.	.	.	.	.	.	.	.	.	.	.	.	.
.	.	.	.	.	.	.	16qqa/JJ	.	16qqA/JJ	.	.	.	.	.	.	.	.	.	.	.	.	.	.	.	.	.	.	.
4CC/	.	.	8c\L	.	4e/	.	4g/	.	4G\	-di	.	.	.	.	.	.	.	.	8r	.	.	.	.	.	.	.	.	.
!	!	!	!	!	!	!	!	!	!	!	!	!	!	!	!	!	!	!	!	!LO:DY:b:t=fort:color=red	!	!	!	!	!	!	!	!
.	.	.	8g\	.	.	.	.	.	.	.	.	.	.	.	.	.	.	.	8g\L	f	.	.	.	.	.	.	.	.
!	!	!LO:DY:b:color=red	!	!	!	!	!	!	!	!	!	!	!	!	!	!	!	!	!	!	!	!	!	!	!	!	!	!
4r	.	f	8g\	.	4r	.	4r	.	4r	.	.	.	.	.	.	.	.	.	8g\	.	.	.	.	.	.	.	.	.
.	.	.	8g\J	.	.	.	.	.	.	.	.	.	.	.	.	.	.	.	8g\J	.	.	.	.	.	.	.	.	.
=32	=32	=32	=32	=32	=32	=32	=32	=32	=32	=32	=32	=32	=32	=32	=32	=32	=32	=32	=32	=32	=32	=32	=32	=32	=32	=32	=32	=32
!LO:TX:b:t=Tutti	!	!	!	!LO:DY:b:t=forto:color=red	!	!LO:DY:a:t=forto:color=red	!	!LO:DY:b:t=fort:color=red	!	!	!	!	!	!	!	!	!	!LO:DY:b:t=forto:color=red	!	!	!	!LO:DY:b:color=red	!	!LO:DY:b:color=red	!	!LO:DY:b:t=fort:color=red	!	!LO:DY:b:color=red
8GG/L	7 5	.	16d/LL	f	(16Bn/LL	f	16r	f	4Bn\	ex-	(4d\	Ex-	2g\	Ex-	2ff\	Ex-	4g\	f	4g\	.	(2bn\	f	(2ff\	f	2dd\	f	2ff\	f
.	.	.	16G/	.	16d/)	.	(16ff\LL	.	.	.	.	.	.	.	.	.	.	.	.	.	.	.	.	.	.	.	.	.
8C/J	.	.	16d/	.	(16B/	.	16ee\	.	.	.	.	.	.	.	.	.	.	.	.	.	.	.	.	.	.	.	.	.
.	.	.	16G/JJ	.	16d/JJ)	.	16dd\JJ)	.	.	.	.	.	.	.	.	.	.	.	.	.	.	.	.	.	.	.	.	.
!LO:LB:g=original	!	!	!	!	!	!	!	!	!	!	!	!	!	!	!	!	!	!	!	!	!	!	!	!	!	!	!	!
8BBn/L	.	.	16d/LL	.	(16B/LL	.	16cc|\LL	.	4G\	-au-	4Bn\)	.	.	.	.	.	8g\L	.	8g\L	.	.	.	.	.	.	.	.	.
.	.	.	16G/	.	16d/)	.	16bn|\	.	.	.	.	.	.	.	.	.	.	.	.	.	.	.	.	.	.	.	.	.
8GG/	.	.	16d/	.	(16B/	.	16a|\	.	.	.	.	.	.	.	.	.	8g\J	.	8g\J	.	.	.	.	.	.	.	.	.
.	.	.	16G/JJ	.	16d/JJ)	.	16g|\JJ	.	.	.	.	.	.	.	.	.	.	.	.	.	.	.	.	.	.	.	.	.
!	!	!	!	!	!	!	!LO:LB:g=original	!	!	!	!	!	!	!	!	!	!	!	!	!	!	!	!	!	!	!	!	!
8C/	3	.	16e/LL	.	16c/LL	.	(16ee\LL	.	8c\	-di	8c\	-au-	8g\	-au-	8ee\	-au-	8c/L	.	8g\L	.	4cc\)	.	4ee|\)	.	4cc\	.	4ee\	.
.	.	.	16G/	.	16e/	.	16cc\)	.	.	.	.	.	.	.	.	.	.	.	.	.	.	.	.	.	.	.	.	.
8CC/J	.	.	16e/	.	16c/	.	16g|\	.	8C/	nos	8e\	-di	8g\	-di	8ee\	-di	8c/J	.	8g\J	.	.	.	.	.	.	.	.	.
.	.	.	16G/JJ	.	16e/JJ	.	16g|\JJ	.	.	.	.	.	.	.	.	.	.	.	.	.	.	.	.	.	.	.	.	.
!	!	!	!	!	!	!	!	!	!LO:LB:g=original	!	!	!	!	!	!	!	!	!	!	!	!	!	!	!	!	!	!	!
=33	=33	=33	=33	=33	=33	=33	=33	=33	=33	=33	=33	=33	=33	=33	=33	=33	=33	=33	=33	=33	=33	=33	=33	=33	=33	=33	=33	=33
!	!	!	!	!	!LO:SIC:s=16Bn/	!	!	!	!	!	!	!	!	!	!	!	!	!	!	!	!LO:SIC:s=2bn\	!	!	!	!	!	!	!
8GG/L	7 5	.	16d/LL	.	16B-/LL	.	16r	.	4Bn\	ex-	(4d\	ex-	2g\	ex-	2ff\	Ex-	4g\	.	4g\	.	(2b-\	.	(2ff\	.	2dd\	.	2ff\	.
.	.	.	16G/	.	16d/	.	(16ff\LL	.	.	.	.	.	.	.	.	.	.	.	.	.	.	.	.	.	.	.	.	.
!	!	!	!	!	!LO:SIC:s=16Bn/	!	!	!	!	!	!	!	!	!	!	!	!	!	!	!	!	!	!	!	!	!	!	!
8D/	.	.	16d/	.	16B-/	.	16ee\	.	.	.	.	.	.	.	.	.	.	.	.	.	.	.	.	.	.	.	.	.
.	.	.	16G/JJ	.	16d/JJ	.	16dd\JJ)	.	.	.	.	.	.	.	.	.	.	.	.	.	.	.	.	.	.	.	.	.
!	!	!	!	!	!LO:SIC:s=16Bn/	!	!	!	!	!	!	!	!	!	!	!	!	!	!	!	!	!	!	!	!	!	!	!
8BBn/	.	.	16d/LL	.	16B-/LL	.	16cc|\LL	.	4G\	-au-	4Bn\)	.	.	.	.	.	8g\L	.	8g\L	.	.	.	.	.	.	.	.	.
.	.	.	16G/	.	16d/	.	16bn|\	.	.	.	.	.	.	.	.	.	.	.	.	.	.	.	.	.	.	.	.	.
!	!	!	!	!	!LO:SIC:s=16Bn/	!	!	!	!	!	!	!	!	!	!	!	!	!	!	!	!	!	!	!	!	!	!	!
8GG/	.	.	16d/	.	16B-/	.	16a|\	.	.	.	.	.	.	.	.	.	8g\	.	8g\J	.	.	.	.	.	.	.	.	.
.	.	.	16G/JJ	.	16d/JJ	.	16g|\JJ	.	.	.	.	.	.	.	.	.	.	.	.	.	.	.	.	.	.	.	.	.
8C/	3	.	16e/LL	.	16c/LL	.	(16ee\LL	.	8c\	-di	8c\	-au-	8g\	-au-	8ee\	-au-	8c/	.	8g\L	.	4cc\)	.	4ee|\)	.	4cc\	.	4ee\	.
.	.	.	16G/	.	16e/	.	16cc\)	.	.	.	.	.	.	.	.	.	.	.	.	.	.	.	.	.	.	.	.	.
8CC/J	.	.	16e/	.	16c/	.	16g|\	.	8C/	nos	8e\	-di	8g\	-di	8ee\	-di	8c/J	.	8g\J	.	.	.	.	.	.	.	.	.
.	.	.	16G/JJ	.	16e/JJ	.	16g|\JJ	.	.	.	.	.	.	.	.	.	.	.	.	.	.	.	.	.	.	.	.	.
=34	=34	=34	=34	=34	=34	=34	=34	=34	=34	=34	=34	=34	=34	=34	=34	=34	=34	=34	=34	=34	=34	=34	=34	=34	=34	=34	=34	=34
!	!	!	!	!	!	!	!	!	!LO:TX:t=P:problem:między t. 33 a 34 czterotaktowa pauza zapisana czarnym tuszem - wyblakłe	!	!	!	!	!	!	!	!	!	!	!	!	!	!	!	!	!	!	!
8E\L	6 3	.	8g\	.	8c/	.	16r	.	4E\	nos	4E/	nos	4g\	nos	4cc\	nos	2.c/	.	2.g\	.	2.g/	.	2.cc\	.	2.ee\	.	4ccc\	.
.	.	.	.	.	.	.	(16gg\LL	.	.	.	.	.	.	.	.	.	.	.	.	.	.	.	.	.	.	.	.	.
8E\	.	.	4g\	.	4c/	.	16ff\	.	.	.	.	.	.	.	.	.	.	.	.	.	.	.	.	.	.	.	.	.
.	.	.	.	.	.	.	16ee\JJ)	.	.	.	.	.	.	.	.	.	.	.	.	.	.	.	.	.	.	.	.	.
8E\	.	.	.	.	.	.	(16ee\LL	.	8E\	Do-	8E/	do-	8g\	Do-	8cc\	Do-	.	.	.	.	.	.	.	.	.	.	(16eee\LL	.
.	.	.	.	.	.	.	16dd\)	.	.	.	.	.	.	.	.	.	.	.	.	.	.	.	.	.	.	.	16ddd\)	.
8E\	.	.	8g\	.	8c/	.	(16dd\	.	8E\	-mi-	8E/	-mi-	8g\	-mi-	8cc\	-mi-	.	.	.	.	.	.	.	.	.	.	(16ddd\	.
.	.	.	.	.	.	.	16cc\JJ)	.	.	.	.	.	.	.	.	.	.	.	.	.	.	.	.	.	.	.	16ccc\JJ)	.
8E\	.	.	8g\L	.	8c/L	.	(16cc\LL	.	4E\	-ne	4E/	-ne	4g\	-ne	4cc\	-ne	.	.	.	.	.	.	.	.	.	.	(16ccc\LL	.
.	.	.	.	.	.	.	16bn\)	.	.	.	.	.	.	.	.	.	.	.	.	.	.	.	.	.	.	.	16bbn\)	.
8E\J	.	.	8g\J	.	8c/J	.	16b|\	.	.	.	.	.	.	.	.	.	.	.	.	.	.	.	.	.	.	.	(16bb\	.
.	.	.	.	.	.	.	16cc|\JJ	.	.	.	.	.	.	.	.	.	.	.	.	.	.	.	.	.	.	.	16ccc\JJ)	.
!	!	!	!LO:LB:g=original	!	!	!	!	!	!	!	!LO:LB:g=original	!	!	!	!	!	!	!	!	!	!	!	!	!	!	!	!	!
=35	=35	=35	=35	=35	=35	=35	=35	=35	=35	=35	=35	=35	=35	=35	=35	=35	=35	=35	=35	=35	=35	=35	=35	=35	=35	=35	=35	=35
8F\L	6 3	.	8a\	.	8d/	.	16r	.	4F\	nos	4F/	nos	4a\	nos	4dd\	nos	2.f\	.	2.a\	.	2.a/	.	2.dd\	.	2.ff\	.	4ddd\	.
.	.	.	.	.	.	.	(16aa\LL	.	.	.	.	.	.	.	.	.	.	.	.	.	.	.	.	.	.	.	.	.
8F\	.	.	4a\	.	4d/	.	16gg\	.	.	.	.	.	.	.	.	.	.	.	.	.	.	.	.	.	.	.	.	.
.	.	.	.	.	.	.	16ff\JJ)	.	.	.	.	.	.	.	.	.	.	.	.	.	.	.	.	.	.	.	.	.
8F\	.	.	.	.	.	.	(16ff\LL	.	8F\	Do-	8F/	do-	8a\	Do-	8dd\	Do-	.	.	.	.	.	.	.	.	.	.	(16fff\LL	.
.	.	.	.	.	.	.	16ee\)	.	.	.	.	.	.	.	.	.	.	.	.	.	.	.	.	.	.	.	16eee\)	.
8F\	.	.	8a\	.	8d/	.	(16ee\	.	8F\	-mi-	8F/	-mi-	8a\	-mi-	8dd\	-mi-	.	.	.	.	.	.	.	.	.	.	(16eee\	.
.	.	.	.	.	.	.	16dd\JJ)	.	.	.	.	.	.	.	.	.	.	.	.	.	.	.	.	.	.	.	16ddd\JJ)	.
8F\	.	.	8a\L	.	8d/L	.	(16cc#X\LL	.	4F\	-ne	4F/	-ne	4a\	-ne	4dd\	-ne	.	.	.	.	.	.	.	.	.	.	(16ccc#X\LL	.
.	.	.	.	.	.	.	16dd\)	.	.	.	.	.	.	.	.	.	.	.	.	.	.	.	.	.	.	.	16ddd\)	.
8F\J	.	.	8a\J	.	8d/J	.	16cc#|\	.	.	.	.	.	.	.	.	.	.	.	.	.	.	.	.	.	.	.	(16ccc#\	.
.	.	.	.	.	.	.	16dd|\JJ	.	.	.	.	.	.	.	.	.	.	.	.	.	.	.	.	.	.	.	16ddd\JJ)	.
=36	=36	=36	=36	=36	=36	=36	=36	=36	=36	=36	=36	=36	=36	=36	=36	=36	=36	=36	=36	=36	=36	=36	=36	=36	=36	=36	=36	=36
4r	.	.	8.g\L	.	16e|/LL	.	8.gg\L	.	4r	.	4r	.	4r	.	4r	.	4r	.	4r	.	4r	.	4r	.	8.gg\L	.	4r	.
.	.	.	.	.	16g|/	.	.	.	.	.	.	.	.	.	.	.	.	.	.	.	.	.	.	.	.	.	.	.
.	.	.	.	.	16e|/	.	.	.	.	.	.	.	.	.	.	.	.	.	.	.	.	.	.	.	.	.	.	.
.	.	.	16e\Jk	.	16g|/JJ	.	16ee\Jk	.	.	.	.	.	.	.	.	.	.	.	.	.	.	.	.	.	16ee\Jk	.	.	.
8r	.	.	16c|\LL	.	16e|/LL	.	8ccn|\L	.	8r	.	8r	.	8r	.	8r	.	8r	.	8r	.	8cc|\L	.	8ee|\L	.	8ee\L	.	8cccn\L	.
.	.	.	16e|\	.	16g|/	.	.	.	.	.	.	.	.	.	.	.	.	.	.	.	.	.	.	.	.	.	.	.
!LO:TX:t=P:problem:mixed beam	!	!	!	!	!	!	!	!	!	!	!	!	!	!	!	!	!	!	!LO:LB:g=original	!	!	!	!	!	!	!	!	!
8C\L	.	.	16c|\	.	16e|/	.	8cc|\	.	8C/	ex-	8G/	ex-	8e\	ex-	8cc\	ex-	8c/	.	8g\L	.	8cc|\	.	8ee|\	.	8ee\	.	8ccc\	.
.	.	.	16e|\JJ	.	16g|/JJ	.	.	.	.	.	.	.	.	.	.	.	.	.	.	.	.	.	.	.	.	.	.	.
8G\	5 7	.	16d|\LL	.	16f|/LL	.	8dd|\	.	8G\	-au-	8G/	-au-	8f\	-au-	8dd\	-au-	8g\L	.	8g\	.	(8dd\	.	8ff|\	.	8ff\	.	8ddd\	.
.	.	.	16f|\	.	16g|/	.	.	.	.	.	.	.	.	.	.	.	.	.	.	.	.	.	.	.	.	.	.	.
8GG/J	n 5	.	16d|\	.	16f|/	.	8bn|\J	.	8G\	-di	8G/	-di	8d\	-di	8bn\	-di	8g\J	.	8g\J	.	8bn|\J)	.	8ff|\J	.	8dd\J	.	8bbn\J	.
.	.	.	16f|\JJ	.	16g|/JJ	.	.	.	.	.	.	.	.	.	.	.	.	.	.	.	.	.	.	.	.	.	.	.
!	!	!	!	!	!	!	!LO:LB:g=original	!	!	!	!	!	!	!	!	!	!	!	!	!	!	!	!	!	!	!	!	!
=37	=37	=37	=37	=37	=37	=37	=37	=37	=37	=37	=37	=37	=37	=37	=37	=37	=37	=37	=37	=37	=37	=37	=37	=37	=37	=37	=37	=37
4r	.	.	(16g\LL	.	16e/LL	.	(16gg\LL	.	4r	.	4r	.	4r	.	4r	.	4r	.	4r	.	4r	.	4r	.	(16gg\LL	.	4r	.
.	.	.	16f#X\	.	16g/	.	16ff#X\	.	.	.	.	.	.	.	.	.	.	.	.	.	.	.	.	.	16ff#X\	.	.	.
.	.	.	16g\)	.	16e/	.	16gg\)	.	.	.	.	.	.	.	.	.	.	.	.	.	.	.	.	.	16gg\)	.	.	.
.	.	.	16e|\JJ	.	16g/JJ	.	16ee|\JJ	.	.	.	.	.	.	.	.	.	.	.	.	.	.	.	.	.	16ee|\JJ	.	.	.
!	!	!	!	!	!	!	!	!	!	!	!	!	!LO:LB:g=original	!	!	!	!	!	!	!	!	!	!	!	!	!	!	!
8r	.	.	16c\LL	.	16e/LL	.	(16cc\LL	.	8r	.	8r	.	8r	.	8r	.	8r	.	8r	.	8cc|\L	.	8ee|\L	.	8cc\L	.	(16ccc\LL	.
.	.	.	16e\	.	16g/	.	16bn\	.	.	.	.	.	.	.	.	.	.	.	.	.	.	.	.	.	.	.	16bbn\)	.
!LO:TX:t=P:problem:mixed beam	!	!	!	!	!	!	!	!	!	!	!	!	!	!	!	!	!	!	!	!	!	!	!	!	!	!	!	!
8C\L	.	.	16c\	.	16e/	.	16cc\)	.	8C/	ex-	8G/	ex-	8e\	ex-	8cc\	ex-	8c/	.	8g\L	.	8cc|\	.	8ee|\	.	8ee\	.	(16ccc\	.
.	.	.	16e\JJ	.	16g/JJ	.	16cc#X|\JJ	.	.	.	.	.	.	.	.	.	.	.	.	.	.	.	.	.	.	.	16ccc#X\JJ)	.
!	!	!	!	!	!LO:LB:g=original	!	!	!	!	!	!	!	!	!	!	!	!LO:LB:g=original	!	!	!	!	!	!	!	!	!	!	!
8G\	5 9	.	16d\LL	.	16f/LL	.	(16dd\LL	.	8G\	-au-	8G/	-au-	8f\	-au-	8dd\	-au-	8g\L	.	8g\	.	(8dd\	.	8ff|\	.	8ffn\	.	(16ddd\LL	.
.	.	.	16fn\	.	16g/	.	16cc#X\	.	.	.	.	.	.	.	.	.	.	.	.	.	.	.	.	.	.	.	16ccc#X\)	.
!	!	!	!	!	!	!	!	!	!	!	!	!	!	!	!LO:SIC:s=8bn\	!	!	!	!	!	!	!	!	!	!	!	!	!
8GG/J	n 5	.	16d\	.	16f/	.	16dd\)	.	8G\	-di	8G/	-di	8d\	-di	8b-\	-di	8g\J	.	8g\J	.	8bn|\J)	.	8ff|\J	.	8ff\J	.	(16ddd\	.
.	.	.	16f\JJ	.	16g/JJ	.	16b|\JJ	.	.	.	.	.	.	.	.	.	.	.	.	.	.	.	.	.	.	.	16bb\JJ)	.
=38	=38	=38	=38	=38	=38	=38	=38	=38	=38	=38	=38	=38	=38	=38	=38	=38	=38	=38	=38	=38	=38	=38	=38	=38	=38	=38	=38	=38
!LO:TX:a:t=1	!	!	!LO:TX:a:t=1	!	!	!LO:DY:b:t=pia:color=red	!	!LO:DY:b:t=pia:color=red	!LO:TX:a:t=1	!	!LO:TX:a:t=1	!	!LO:TX:a:t=1	!	!LO:TX:a:t=1	!	!LO:TX:a:t=1	!	!LO:TX:a:t=1	!	!	!	!	!	!	!LO:DY:b:t=pia:color=red	!	!LO:DY:b:t=piano:color=red
2.r	.	.	2.r	.	8cc|\L	p	8ee|\L	p	2.r	.	2.r	.	2.r	.	2.r	.	2.r	.	2.r	.	4r	.	4r	.	8ccc|\L	p	8eee|\L	p
.	.	.	.	.	8bn|\	.	8dd|\	.	.	.	.	.	.	.	.	.	.	.	.	.	.	.	.	.	8bbn|\	.	8ddd|\	.
.	.	.	.	.	8a|\	.	8ccn|\	.	.	.	.	.	.	.	.	.	.	.	.	.	8r	.	8r	.	8aa|\	.	8cccn|\	.
!	!	!	!	!	!	!	!	!	!	!	!	!	!	!	!	!	!	!	!	!	!LO:TX:b:i:t=dolce:color=red	!	!LO:TX:b:i:t=dolce:color=red	!	!	!	!	!
.	.	.	.	.	8g|\	.	8bn|\	.	.	.	.	.	.	.	.	.	.	.	.	.	8gg|\L	.	8bbn|\L	.	8gg|\	.	8bbn|\	.
.	.	.	.	.	8f|\	.	8a|\	.	.	.	.	.	.	.	.	.	.	.	.	.	8ff|\	.	8aa|\	.	8ff|\	.	8aa|\	.
.	.	.	.	.	8e|\J	.	8g|\J	.	.	.	.	.	.	.	.	.	.	.	.	.	8ee|\J	.	8gg|\J	.	8ee|\J	.	8gg|\J	.
!	!	!	!	!	!	!	!	!	!LO:LB:g=original	!	!	!	!	!	!	!	!	!	!	!	!LO:LB:g=original	!	!	!	!	!	!	!
=39	=39	=39	=39	=39	=39	=39	=39	=39	=39	=39	=39	=39	=39	=39	=39	=39	=39	=39	=39	=39	=39	=39	=39	=39	=39	=39	=39	=39
4r	.	.	4r	.	8d|/L	.	8f|/L	.	4r	.	4r	.	4r	.	4r	.	4r	.	4r	.	8dd|\L	.	8ff|\L	.	8dd|\L	.	8ff|\L	.
.	.	.	.	.	8c|/	.	8e|/	.	.	.	.	.	.	.	.	.	.	.	.	.	8cc|\	.	8ee|\	.	8cc|\	.	8ee|\	.
4r	.	.	4r	.	8Bn|/J	.	8d|/J	.	4r	.	4r	.	4r	.	4r	.	4r	.	4r	.	8bn|\J	.	8dd|\J	.	8bn|\J	.	8dd|\J	.
!	!	!	!	!	!	!	!	!	!	!	!	!	!	!	!	!	!	!	!	!	!	!	!	!	!	!	!LO:LB:g=original	!
.	.	.	.	.	8r	.	8r	.	.	.	.	.	.	.	.	.	.	.	.	.	8r	.	8r	.	8r	.	8r	.
!	!	!	!	!	!	!	!	!	!	!	!	!	!	!	!LO:LB:g=original	!	!	!	!	!	!	!	!LO:LB:g=original	!	!LO:LB:g=original	!	!	!
8r	.	.	8r	.	8r	.	8r	.	8r	.	8r	.	8r	.	8r	.	8r	.	8r	.	8r	.	8r	.	8r	.	8r	.
!	!	!	!	!	!	!LO:DY:b:t=forto:color=red	!	!LO:DY:b:t=fort:color=red	!	!	!	!	!	!	!	!	!	!	!	!	!	!	!	!	!	!	!	!LO:DY:b:t=fort:color=red
8G\	.	.	8bn\	.	8dd\	f	8ff\	f	8Bn\	nos	8d\	nos	8g\	nos	8ff\	nos	8g\	.	8g\	.	8dd\	.	8ff\	.	8ddd\	.	8fff\	f
=40	=40	=40	=40	=40	=40	=40	=40	=40	=40	=40	=40	=40	=40	=40	=40	=40	=40	=40	=40	=40	=40	=40	=40	=40	=40	=40	=40	=40
8c\L	.	.	8g\L	.	(16cc\LL	.	(16ee\LL	.	(8c\L	do-	8c\L	Do-	(8g\L	Do-	(8ee\L	do-	8c\L	.	8g\L	.	(8cc\L	.	(8ee\L	.	8ccc\L	.	8eee\L	.
.	.	.	.	.	16ee\)	.	16gg\)	.	.	.	.	.	.	.	.	.	.	.	.	.	.	.	.	.	.	.	.	.
8F\J	.	.	8a\J	.	(16dd\	.	(16ff\	.	8F\J)	.	(8f\J	.	8a\J	.	8dd\J	.	8f\J	.	8a\J	.	16a\L	.	16ff\L	.	8ff\J	.	8ddd\J	.
.	.	.	.	.	16ff\JJ)	.	16aa\JJ)	.	.	.	.	.	.	.	.	.	.	.	.	.	16f\JJ)	.	16aa\JJ)	.	.	.	.	.
4G\	4	.	4g\	.	4e/	.	4cc\	.	4G\	.	4e\)	.	4g\)	.	4cc\)	.	4g\	.	4g\	.	4e/	.	4cc\	.	4ee\	.	4ccc\	.
4GG/	n	.	4g\	.	4d/	.	4bn\	.	4G\	-mi-	4d\	-mi-	4g\	-mi-	4bn\	-mi-	4g\	.	4g\	.	4f/	.	4dd\	.	4dd\	.	4bbn\	.
=41	=41	=41	=41	=41	=41	=41	=41	=41	=41	=41	=41	=41	=41	=41	=41	=41	=41	=41	=41	=41	=41	=41	=41	=41	=41	=41	=41	=41
!	!	!	!	!LO:DY:b:t=pia:color=red	!	!	!	!	!	!	!	!	!	!	!	!	!	!	!	!	!	!	!	!	!	!	!	!
4C/	.	.	4g\	p	4e/	.	4cc\	.	4C/	-ne	4e\	-ne	4g\	-ne	4cc\	-ne	4c/	.	4g\	.	4e/	.	4cc\	.	4ee\	.	4ccc\	.
!	!	!	!	!	!LO:TX:a:t=Flauti	!	!LO:TX:a:t=Flauti	!	!	!	!	!	!	!	!	!	!	!	!	!	!	!	!	!	!	!	!	!
4r	.	.	4cc|\	.	4r	.	4r	.	4r	.	4r	.	4r	.	4r	.	4c/	.	4c/	.	4r	.	4r	.	4r	.	4r	.
!	!	!	!	!	!	!	!	!	!	!	!	!	!	!	!	!	!	!	!	!	!	!	!	!	!LO:TX:b:i:t=Solo	!	!	!
4r	.	.	4cc|\	.	4r	.	4r	.	4r	.	4r	.	4r	.	4r	.	4c/	.	4c/	.	4r	.	4r	.	4r	.	4r	.
*	*	*	*	*	*	*	*	*	*	*	*	*	*	*	*	*	*clefF4	*	*	*	*	*	*	*	*	*	*	*
=42	=42	=42	=42	=42	=42	=42	=42	=42	=42	=42	=42	=42	=42	=42	=42	=42	=42	=42	=42	=42	=42	=42	=42	=42	=42	=42	=42	=42
*	*	*	*	*	*^	*	*^	*	*	*	*	*	*	*	*	*	*	*	*	*	*	*	*	*	*	*	*	*
*	*	*	*	*	*	*cue	*	*	*cue	*	*	*	*	*	*	*	*	*	*	*	*	*	*	*	*	*	*	*	*	*
!	!	!	!	!	!	!	!	!	!	!	!	!	!	!	!	!	!	!	!LO:TX:t=P:problem:transpozycja w kluczu basowym oktawę wyżej	!	!	!	!	!	!	!	!	!	!	!
!LO:N:vis=00	!	!	!	!	!	!	!	!	!	!	!LO:N:vis=00	!	!LO:N:vis=00	!	!LO:N:vis=00	!	!LO:N:vis=00	!	!LO:TX:a:i:t=Solo:color=red	!	!LO:TX:b:i:t=Dolce:color=red	!	!	!	!	!	!	!	!	!
!LO:TX:a:t=5	!	!	!	!	!LO:TX:b:t=1	!	!	!LO:TX:b:t=1	!	!	!LO:TX:a:t=5	!	!LO:TX:a:t=5	!	!LO:TX:a:t=5	!	!LO:TX:a:t=5	!	!LO:TX:a:i:t=NB	!	!LO:TX:a:i:t=Solo:color=red	!	!LO:TX:b:i:t=Solo dolce:color=red 	!	!LO:TX:b:i:t=Solo dolce:color=red 	!	!LO:TX:b:i:t=dolce:color=red	!	!LO:TX:b:i:t=Solo:color=red	!
0.r	.	.	4cc\	.	2.rc	4ee/	.	2.rc	4bb-X/	.	0.r	.	0.r	.	0.r	.	0.r	.	4FF/	.	4g\	.	4ee\	.	4bb-X\	.	4ee\	.	4bb-X\	.
.	.	.	4cc\	.	.	(8ee/L	.	.	(8gg/L	.	.	.	.	.	.	.	.	.	8FFF|/L	.	8g|\L	.	(8ee\L	.	(8gg\L	.	(8ee\L	.	(8gg\L	.
.	.	.	.	.	.	8gg/)	.	.	8bb-/)	.	.	.	.	.	.	.	.	.	8FF|/J	.	8g|\	.	8gg\)	.	8bb-\)	.	8gg\)	.	8bb-\)	.
.	.	.	4cc\	.	.	8ff|/	.	.	8aa|/	.	.	.	.	.	.	.	.	.	8BB-|\L	.	8a|\	.	8ff|\	.	8aa|\	.	8ff|\	.	8aa|\	.
.	.	.	.	.	.	8a|/J	.	.	8ff|/J	.	.	.	.	.	.	.	.	.	8BBB-|/J	.	8a|\J	.	8a|\J	.	8ff|\J	.	8aa|\J	.	8ff|\J	.
=43	=43	=43	=43	=43	=43	=43	=43	=43	=43	=43	=43	=43	=43	=43	=43	=43	=43	=43	=43	=43	=43	=43	=43	=43	=43	=43	=43	=43	=43	=43
!	!	!	!	!	!	!	!	!	!	!	!	!	!	!	!	!	!	!	!	!	!	!	!	!	!	!	!	!	!LO:TX:b:i:t=dolce:color=red	!
!	!	!	!	!	!LO:TX:b:t=2	!	!	!LO:TX:b:t=2	!	!	!	!	!	!	!	!	!	!	!	!	!	!	!	!	!	!	!	!	!	!
.	.	.	4cc\	.	2.rc	4ee/	.	2.rc	(8ee/L	.	.	.	.	.	.	.	.	.	4FF/	.	4g\	.	4g/	.	(8ee\L	.	4ee\	.	(8ee\L	.
.	.	.	.	.	.	.	.	.	8bb-/)	.	.	.	.	.	.	.	.	.	.	.	.	.	.	.	8bb-\)	.	.	.	8bb-\)	.
.	.	.	4cc\	.	.	(8ee/L	.	.	(8gg/	.	.	.	.	.	.	.	.	.	8FFF|/L	.	8g|\L	.	(8ee\L	.	(8gg\	.	(8ee\L	.	(8gg\	.
.	.	.	.	.	.	8gg/)	.	.	8bb-/)	.	.	.	.	.	.	.	.	.	8FF|/J	.	8g|\	.	8gg\)	.	8bb-\)	.	8gg\)	.	8bb-\)	.
.	.	.	4cc\	.	.	8ff|/	.	.	8aa|/	.	.	.	.	.	.	.	.	.	8BB-|\L	.	8a|\	.	8ee|\	.	8aa|\	.	8ff|\	.	8aa|\	.
.	.	.	.	.	.	8a|/J	.	.	8ff|/J	.	.	.	.	.	.	.	.	.	8BBB-|/J	.	8a|\J	.	8a|\J	.	8ff|\J	.	8aa|\J	.	8ff|\J	.
!	!	!	!	!	!	!	!	!	!LO:LB:g=original	!	!	!	!	!	!	!	!	!	!	!	!	!	!	!	!	!	!	!	!	!
=44	=44	=44	=44	=44	=44	=44	=44	=44	=44	=44	=44	=44	=44	=44	=44	=44	=44	=44	=44	=44	=44	=44	=44	=44	=44	=44	=44	=44	=44	=44
!	!	!	!	!	!LO:TX:b:t=3	!	!	!LO:TX:b:t=3	!	!	!	!	!	!	!	!	!	!	!	!	!	!	!	!	!	!	!	!	!	!
.	.	.	4cc\	.	2.rc	4ee/	.	2.rc	(8ee/L	.	.	.	.	.	.	.	.	.	4FF/	.	4g\	.	4g/	.	(8ee\L	.	4ee\	.	(8ee\L	.
.	.	.	.	.	.	.	.	.	8bb-/)	.	.	.	.	.	.	.	.	.	.	.	.	.	.	.	8bb-\)	.	.	.	8bb-\	.
.	.	.	4cc\	.	.	(8ee/L	.	.	(8gg/	.	.	.	.	.	.	.	.	.	8FFF/L	.	8g\L	.	(8ee\L	.	(8gg\	.	8ee\L	.	8gg\	.
.	.	.	.	.	.	8gg/)	.	.	8bb-/)	.	.	.	.	.	.	.	.	.	8FF/J	.	8g\	.	8gg\)	.	8bb-\)	.	8gg\	.	8bb-\	.
*	*	*	*	*	*	*	*	*	*	*	*	*	*	*	*	*	*	*	*clefG2	*	*	*	*	*	*	*	*	*	*	*
.	.	.	8cc\L	.	.	8ff|/	.	.	8aa|/	.	.	.	.	.	.	.	.	.	8f|\L	.	8a\	.	8ee|\	.	8aa|\	.	8ff\	.	8aa\)	.
.	.	.	8e\J	.	.	8a|/J 8cc	.	.	8ee|/J	.	.	.	.	.	.	.	.	.	8c\J	.	8g\J	.	8cc|\J	.	8ee|\J	.	8cc\J	.	8ee\J	.
=45	=45	=45	=45	=45	=45	=45	=45	=45	=45	=45	=45	=45	=45	=45	=45	=45	=45	=45	=45	=45	=45	=45	=45	=45	=45	=45	=45	=45	=45	=45
!	!	!	!	!	!LO:TX:b:t=4	!	!	!LO:TX:b:t=4	!	!	!	!	!	!	!	!	!	!	!	!	!	!	!	!	!	!	!	!	!	!
.	.	.	(8f\L	.	2.rc	8a/L	.	2.rc	(8ff/L	.	.	.	.	.	.	.	.	.	(8A/L	.	(8f\L	.	(8a\L	.	(8ff\L	.	(8a\L	.	(8ff\L	.
.	.	.	8g\	.	.	(8ee/	.	.	8gg/	.	.	.	.	.	.	.	.	.	8c/J)	.	8g\	.	8ee\	.	8gg\	.	8ee\	.	8gg\	.
.	.	.	8a\	.	.	8ff/	.	.	8aa/	.	.	.	.	.	.	.	.	.	(8f\L	.	8a\	.	8ff\)	.	8aa\)	.	8ff\	.	8aa\	.
.	.	.	8b-X\	.	.	8gg/	.	.	8bb-/)	.	.	.	.	.	.	.	.	.	8g\)	.	8b-\)	.	8gg|\	.	8bb-|\	.	8gg\)	.	8bb-\)	.
.	.	.	8cc\	.	.	8aa/)	.	.	8ccc|/	.	.	.	.	.	.	.	.	.	8a|\	.	8cc|\	.	8aa|\	.	8ccc|\	.	8aa|\	.	8ccc|\	.
.	.	.	8a\J)	.	.	8ff|/J	.	.	8aa|/J	.	.	.	.	.	.	.	.	.	8f|\J	.	8a|\J	.	8ff|\J	.	8aa|\J	.	8ff|\J	.	8aa|\J	.
!	!	!	!	!	!	!	!	!	!	!	!	!	!	!	!	!	!	!	!LO:LB:g=original	!	!LO:LB:g=original	!	!	!	!	!	!	!	!	!
=46	=46	=46	=46	=46	=46	=46	=46	=46	=46	=46	=46	=46	=46	=46	=46	=46	=46	=46	=46	=46	=46	=46	=46	=46	=46	=46	=46	=46	=46	=46
!LO:N:vis=1	!	!	!	!	!LO:TX:b:t=5	!	!	!LO:TX:b:t=5	!	!	!LO:N:vis=1	!	!LO:N:vis=1	!	!LO:N:vis=1	!	!LO:N:vis=1	!	!	!	!	!	!	!	!	!	!	!	!LO:TX:t=P:problem:tr = tr:	!
2.r	.	.	4a\	.	2.rc	4ff/	.	2.rc	(8.aa/L	.	2.r	.	2.r	.	2.r	.	2.r	.	4f|\	.	4a|\	.	8.ffT\L	.	8.aat\L	.	8.ffT\L	.	8.aat\L	.
.	.	.	.	.	.	.	.	.	32gg/LL	.	.	.	.	.	.	.	.	.	.	.	.	.	(32ee\LL	.	(32gg\LL	.	(32ee\LL	.	32gg\LL	.
.	.	.	.	.	.	.	.	.	32aa/JJJ)	.	.	.	.	.	.	.	.	.	.	.	.	.	32ff\JJJ)	.	32aa\JJJ)	.	32ff\JJJ)	.	32aa\JJJ	.
.	.	.	4g\	.	.	4ee/	.	.	4gg/	.	.	.	.	.	.	.	.	.	4c|/	.	4g|\	.	4ee\	.	4gg\	.	4ee\	.	4gg\	.
!	!	!	!	!	!	!	!	!	!	!	!	!	!	!	!	!	!	!	!	!LO:DY:b:color=red	!	!	!	!	!	!	!	!	!	!
.	.	.	4r	.	.	4rggg	.	.	4rggg	.	.	.	.	.	.	.	.	.	4r	f	4r	.	4r	.	4r	.	4r	.	4r	.
*	*	*	*	*	*	*Xcue	*	*	*Xcue	*	*	*	*	*	*	*	*	*	*	*	*	*	*	*	*	*	*	*	*	*
*	*	*	*	*	*v	*v	*	*	*	*	*	*	*	*	*	*	*	*	*	*	*	*	*	*	*	*	*	*	*	*
*	*	*	*	*	*	*	*v	*v	*	*	*	*	*	*	*	*	*	*	*	*	*	*	*	*	*	*	*	*	*
!	!	!	!LO:LB:g=original	!	!	!	!	!	!	!	!	!	!	!	!	!	!	!	!	!	!	!	!LO:LB:g=original	!	!LO:LB:g=original	!	!	!
=47	=47	=47	=47	=47	=47	=47	=47	=47	=47	=47	=47	=47	=47	=47	=47	=47	=47	=47	=47	=47	=47	=47	=47	=47	=47	=47	=47	=47
!	!	!LO:DY:b:t=fort:color=red	!	!LO:DY:b:t=forto:color=red	!	!LO:DY:b:t=forto:color=red	!	!LO:DY:b:t=fort:color=red	!	!	!	!	!	!	!	!	!	!	!	!LO:DY:b:color=red	!	!LO:DY:b:t=forto:color=red	!	!LO:DY:b:t=forto:color=red	!	!LO:DY:b:t=forto:color=red	!	!LO:DY:b:t=forto:color=red
8.F\L	3	f	8.f\L	f	8.cc|\L	f	8.aa\L	f	8.F\	A-	8.c\	A-	8.a\	A-	8.cc\	A-	4F/	.	4c/	f	8.cc\L	f	8.aa\L	f	8.cc\L	f	8.aa\L	f
16F\Jk	.	.	16f\Jk	.	16cc|\Jk	.	16aa\Jk	.	16F\	-gnus	16c\	-gnus	16a\	-gnus	16cc\	-gnus	.	.	.	.	16cc\Jk	.	16aa\Jk	.	16cc\Jk	.	16aa\Jk	.
!LO:LB:g=original	!	!	!	!	!	!	!	!	!	!	!LO:LB:g=original	!	!	!	!	!	!	!	!	!	!	!	!	!	!	!	!	!
4B-X\	3	.	4g\	.	4dd\	.	4bb-X\	.	4B-\	A-	4d\	A-	4b-\	De-	4dd\	A-	4r	.	4r	.	4dd\	.	4bb-\	.	4dd\	.	4bb-\	.
8A\L	.	.	4d\	.	4b-X\	.	4gg\	.	4d\	-gnus	4d\	-gnus	4g\	-i	4b-X\	-gnus	4r	.	4r	.	4b-\	.	4gg\	.	4b-X\	.	4gg\	.
8B-\J	.	.	.	.	.	.	.	.	.	.	.	.	.	.	.	.	.	.	.	.	.	.	.	.	.	.	.	.
!	!	!	!	!	!LO:LB:g=original	!	!	!	!	!	!	!	!	!	!	!	!	!	!	!	!	!	!	!	!	!	!	!
=48	=48	=48	=48	=48	=48	=48	=48	=48	=48	=48	=48	=48	=48	=48	=48	=48	=48	=48	=48	=48	=48	=48	=48	=48	=48	=48	=48	=48
4c\	.	.	4c\	.	4g/	.	4ee\	.	4c\	De-	4c\	De-	4e\	De-	4g\	De-	4c/	.	4g\	.	4g/	.	4ee\	.	4g/	.	4ee\	.
4F\	.	.	4c\	.	4a/	.	4ff\	.	4F\	-i	4c\	-i	4f\	-i	4a\	-i	4f\	.	4a\	.	4a/	.	4ff\	.	4a/	.	4ff\	.
4r	.	.	4r	.	8r	.	8r	.	4r	.	4r	.	4r	.	4r	.	4r	.	4r	.	4r	.	4r	.	4r	.	4r	.
.	.	.	.	.	.	.	16qqgg/	.	.	.	.	.	.	.	.	.	.	.	.	.	.	.	.	.	.	.	.	.
!	!	!	!	!	!	!	!	!LO:DY:b:t=pia:color=red	!	!	!	!	!	!	!	!	!	!	!	!	!	!	!	!	!	!	!	!
.	.	.	.	.	(16dd\LL	.	(16ff\LL	p	.	.	.	.	.	.	.	.	.	.	.	.	.	.	.	.	.	.	.	.
.	.	.	.	.	32cc\L	.	32ee\L	.	.	.	.	.	.	.	.	.	.	.	.	.	.	.	.	.	.	.	.	.
.	.	.	.	.	32b-\JJJ)	.	32dd\JJJ)	.	.	.	.	.	.	.	.	.	.	.	.	.	.	.	.	.	.	.	.	.
=49	=49	=49	=49	=49	=49	=49	=49	=49	=49	=49	=49	=49	=49	=49	=49	=49	=49	=49	=49	=49	=49	=49	=49	=49	=49	=49	=49	=49
4FF/	.	.	4c\	.	8a/L	.	8cc|\L	.	4r	.	4r	.	4r	.	4r	.	4F/	.	4f\	.	4r	.	4r	.	4r	.	4r	.
.	.	.	.	.	8a/J	.	8cc|\	.	.	.	.	.	.	.	.	.	.	.	.	.	.	.	.	.	.	.	.	.
4r	.	.	4r	.	(8a/L	.	(8cc\	.	4r	.	4r	.	4r	.	4r	.	4r	.	4r	.	4r	.	4r	.	4r	.	4r	.
.	.	.	.	.	8b-/	.	8dd\)	.	.	.	.	.	.	.	.	.	.	.	.	.	.	.	.	.	.	.	.	.
!	!	!	!	!	!	!	!	!LO:DY:b:t=fort:color=red	!	!	!	!	!	!	!	!	!	!	!	!	!	!	!	!	!LO:LB:g=original	!	!	!
8r	.	.	8r	.	8a/	.	(8cc\	f	8r	.	8r	.	8r	.	8r	.	8r	.	8r	.	8r	.	8r	.	8r	.	8r	.
8C/	7	.	8c\	.	8g/J)	.	8b-\J)	.	8C/	qui	8c\	qui	8g\	qui	8b-\	qui	8c/	.	8g\	.	8gg\	.	8bb-\	.	8gg\	.	8bb-\	.
=50	=50	=50	=50	=50	=50	=50	=50	=50	=50	=50	=50	=50	=50	=50	=50	=50	=50	=50	=50	=50	=50	=50	=50	=50	=50	=50	=50	=50
4F\	4	.	4c\	.	4g/	.	4b-\	.	4F\	tol-	4c\	tol-	4g\	tol-	4b-\	tol-	4c/	.	4g\	.	4gg\	.	4bb-\	.	4gg\	.	4bb-\	.
4FF/	3	.	4c\	.	4f/	.	4a\	.	4F\	-lis	4c\	-lis	4f\	-lis	4a\	-lis	4A/	.	4f\	.	4ff\	.	4aa\	.	4ff\	.	4aa\	.
!	!	!LO:DY:b:color=red	!	!	!	!LO:DY:b:t=pia:color=red	!	!	!	!	!	!	!	!	!	!	!	!	!	!LO:DY:b:t=pia:color=red	!	!LO:DY:b:t=piano:color=red	!	!	!	!LO:DY:b:t=pia:color=red	!	!LO:DY:b:t=pia:color=red
4r	.	p	4r	.	8r	p	8r	.	4r	.	4r	.	4r	.	4r	.	4r	.	4r	p	8r	p	8r	.	8r	p	8r	p
.	.	.	.	.	.	.	16qqg/	.	.	.	.	.	.	.	.	.	.	.	.	.	.	.	16qqgg/	.	.	.	16qqgg/	.
!	!	!	!	!	!	!	!	!LO:DY:b:t=pia:color=red	!	!	!	!	!	!	!	!	!	!	!	!	!	!	!	!LO:DY:b:t=piano:color=red	!	!	!	!
.	.	.	.	.	(16d/LL	.	(16f/LL	p	.	.	.	.	.	.	.	.	.	.	.	.	(16dd\LL	.	(16ff\LL	p	(16dd\LL	.	(16ff\LL	.
.	.	.	.	.	32c/L	.	32e/L	.	.	.	.	.	.	.	.	.	.	.	.	.	32cc\L	.	32ee\L	.	32cc\L	.	32ee\L	.
.	.	.	.	.	32B-/JJJ)	.	32d/JJJ)	.	.	.	.	.	.	.	.	.	.	.	.	.	32b-\JJJ)	.	32dd\JJJ)	.	32b-\JJJ)	.	32dd\JJJ)	.
!	!	!	!	!	!	!	!	!	!LO:LB:g=original	!	!	!	!LO:LB:g=original	!	!	!	!	!	!	!	!	!	!	!	!	!	!	!
*	*	*	*	*	*	*	*	*	*	*	*	*	*	*	*	*	*clefF4	*	*	*	*	*	*	*	*	*	*	*
=51	=51	=51	=51	=51	=51	=51	=51	=51	=51	=51	=51	=51	=51	=51	=51	=51	=51	=51	=51	=51	=51	=51	=51	=51	=51	=51	=51	=51
!	!	!	!	!LO:DY:b:color=red	!	!	!	!	!	!	!	!	!	!	!	!	!LO:TX:t=P:problem:transpozycja w kluczu basowym oktawę wyżej	!LO:DY:b:color=red	!	!	!	!	!	!	!	!	!	!
4FF/	.	.	4c\	p	8A/L	.	8c|/L	.	4r	.	4r	.	4r	.	4r	.	4FFF/	p	4F/	.	8a|/L	.	8cc|\L	.	8a|/L	.	8cc|\L	.
.	.	.	.	.	8A/J	.	8c|/	.	.	.	.	.	.	.	.	.	.	.	.	.	8a|/	.	8cc|\	.	8a|/	.	8cc|\	.
4r	.	.	4r	.	[8A/L	.	(8c/	.	4r	.	4r	.	4r	.	4r	.	4r	.	4r	.	8a|/	.	(8cc\	.	8a|/	.	(8cc\	.
.	.	.	.	.	8A/]	.	8c#X/)	.	.	.	.	.	.	.	.	.	.	.	.	.	8a|/	.	8cc#X\)	.	8a|/	.	8cc#X\)	.
*	*	*	*	*	*	*	*	*	*	*	*	*	*	*	*	*	*clefG2	*	*	*	*	*	*	*	*	*	*	*
!	!	!LO:DY:b:t=forto:color=red	!	!LO:DY:b:color=red	!	!	!	!LO:DY:a:t=for:color=red	!	!	!	!	!	!	!LO:TX:t=P:problem:brak pauzy	!	!	!	!	!	!	!	!	!	!	!	!	!
8r	.	f	8r	f	8B-/	.	(8d/	f	8r	.	8r	.	8r	.	8ryy	.	8r	.	8r	.	(8b-/	.	8dd|\	.	(8b-/	.	8dd|\	.
8C/	7	.	8c\	.	8G/J	.	8B-/J)	.	8C/	pec-	8c\	pec-	8g\	pec-	8b-\	pec-	8c/	.	8g\	.	8g/J)	.	8b-|\J	.	8g/J)	.	8b-|\J	.
!	!	!	!	!	!	!	!LO:LB:g=original	!	!	!	!	!	!	!	!	!	!	!	!	!	!	!	!	!	!	!	!LO:LB:g=original	!
=52	=52	=52	=52	=52	=52	=52	=52	=52	=52	=52	=52	=52	=52	=52	=52	=52	=52	=52	=52	=52	=52	=52	=52	=52	=52	=52	=52	=52
4F\	4	.	4c\	.	4G/	.	4B-/	.	4F\	-ca-	4c\	-ca-	4g\	-ca-	4b-\	-ca-	4c/	.	4g\	.	4g/	.	4b-\	.	4g/	.	4b-/	.
4FF/	3	.	4F/	.	4A/	.	4A/	.	4F\	-ta	4c\	-ta	4f\	-ta	4a\	-ta	4A/	.	4f\	.	4f/	.	4a\	.	4f/	.	4a/	.
!	!	!	!	!	!	!	!	!	!	!	!	!	!	!	!	!	!	!LO:DY:b:color=red	!	!	!	!LO:DY:b:color=red	!	!	!	!	!	!LO:DY:b:color=red
4r	.	.	8r	.	8r	.	8r	.	4r	.	4r	.	4r	.	4r	.	4r	f	4r	.	8r	f	8r	.	8r	.	8r	f
!	!	!	!	!	!	!LO:DY:b:t=for:color=red	!	!	!	!	!	!	!	!	!	!	!	!	!	!	!	!	!	!	!	!LO:DY:b:color=red	!	!
.	.	.	8c\	.	8a/	f	8cc\	.	.	.	.	.	.	.	.	.	.	.	.	.	8a/	.	8cc\	.	8aa\	f	8ccc\	.
=53	=53	=53	=53	=53	=53	=53	=53	=53	=53	=53	=53	=53	=53	=53	=53	=53	=53	=53	=53	=53	=53	=53	=53	=53	=53	=53	=53	=53
*Xtremolo	*	*	*tremolo	*	*tremolo	*	*	*	*	*	*	*	*	*	*	*	*	*	*	*	*	*	*	*	*	*	*	*
!	!	!	!	!	!	!	!	!	!	!	!	!	!	!	!	!	!	!	!	!LO:DY:b:color=red	!	!	!	!	!	!	!	!
8F\L	6 4	.	8d\L	.	8b-\L	.	8dd|\L	.	2B-\	A-	2f\	A-	2b-\	A-	2dd\	A-	4F/	.	4f\	f	2.b-\	.	2.dd\	.	2.bb-\	.	2.ddd\	.
8F\	.	.	8d\	.	8b-\	.	(8dd\	.	.	.	.	.	.	.	.	.	.	.	.	.	.	.	.	.	.	.	.	.
8F\	.	.	8d\	.	8b-\	.	8ee-X\)	.	.	.	.	.	.	.	.	.	4F/	.	4f\	.	.	.	.	.	.	.	.	.
8F\	.	.	8d\	.	8b-\	.	8dd\	.	.	.	.	.	.	.	.	.	.	.	.	.	.	.	.	.	.	.	.	.
8F\	.	.	8d\	.	8b-\	.	8bb-|\	.	4B-\	-gnus	4f\	-gnus	4b-\	-gnus	4dd\	-gnus	8F/L	.	8f\L	.	.	.	.	.	.	.	.	.
8F\J	.	.	8d\J	.	8b-\J	.	8dd|\J	.	.	.	.	.	.	.	.	.	8F/J	.	8f\J	.	.	.	.	.	.	.	.	.
!	!	!	!	!	!	!	!	!	!	!	!	!	!	!	!LO:LB:g=original	!	!	!	!	!	!	!	!	!	!	!	!	!
=54	=54	=54	=54	=54	=54	=54	=54	=54	=54	=54	=54	=54	=54	=54	=54	=54	=54	=54	=54	=54	=54	=54	=54	=54	=54	=54	=54	=54
*tremolo	*	*	*	*	*	*	*	*	*	*	*	*	*	*	*	*	*	*	*	*	*	*	*	*	*	*	*	*
8F\L	5 3	.	8c\L	.	8a/L	.	8cc|\L	.	4F\	De-	4f\	De-	4a\	De-	4cc\	De-	4F/	.	4f\	.	2.a/	.	2.cc\	.	2.aa\	.	2.ccc\	.
8F\	.	.	8c\	.	8a/	.	(8cc\	.	.	.	.	.	.	.	.	.	.	.	.	.	.	.	.	.	.	.	.	.
8F\	.	.	8c\	.	8a/	.	8dd\)	.	4F\	-i	4f\	-i	4a\	-i	4cc\	-i	4F/	.	4f\	.	.	.	.	.	.	.	.	.
8F\	.	.	8c\	.	8a/	.	8cc\	.	.	.	.	.	.	.	.	.	.	.	.	.	.	.	.	.	.	.	.	.
8F\	.	.	8c\	.	8a/	.	8aa|\	.	4F\	qui	4c\	qui	4a\	qui	4cc\	qui	8F/L	.	8f\L	.	.	.	.	.	.	.	.	.
8F\J	.	.	8c\J	.	8a/J	.	8cc|\J	.	.	.	.	.	.	.	.	.	8F/J	.	8f\J	.	.	.	.	.	.	.	.	.
!	!	!	!	!	!	!	!	!	!	!	!	!	!	!	!	!	!LO:LB:g=original	!	!	!	!	!	!	!	!	!	!	!
=55	=55	=55	=55	=55	=55	=55	=55	=55	=55	=55	=55	=55	=55	=55	=55	=55	=55	=55	=55	=55	=55	=55	=55	=55	=55	=55	=55	=55
.	.	.	.	.	.	.	.	.	.	.	.	.	.	.	.	.	.	.	.	.	8qqa/	.	8qqcc/	.	.	.	.	.
8C\L	7	.	4c\	.	8a/L	.	(8cc\L	.	4G\	tol-	4c\	tol-	8a\L	tol-	8cc\L	tol-	4c/	.	4g\	.	4g/	.	4b-\	.	8aa\	.	8ccc\	.
8G\	.	.	.	.	8g/J	.	8b-\J)	.	.	.	.	.	8g\J	.	8b-\J	.	.	.	.	.	.	.	.	.	2gg\	.	2bb-\	.
8E\	.	.	4.c\	.	8b-/	.	8gg\	.	4E\	-lis	4.c\	-lis	4.g\	-lis	4.b-\	-lis	8c/L	.	8g\L	.	8b-/	.	8gg\	.	.	.	.	.
8C\	.	.	.	.	4g/	.	4b-/	.	.	.	.	.	.	.	.	.	8c/	.	8g\	.	4g/	.	4b-/	.	.	.	.	.
8F\	3	.	.	.	.	.	.	.	4F\	pec-	.	.	.	.	.	.	8f/	.	8a\	.	.	.	.	.	.	.	.	.
8A\J	.	.	8c\	.	8f/	.	8a/	.	.	.	8c\	pec-	8f\	pec-	8a\	pec-	8f/J	.	8a\J	.	8f/	.	8a/	.	8ff\	.	8aa\	.
!	!	!	!	!	!	!	!	!	!	!	!LO:LB:g=original	!	!	!	!	!	!	!	!LO:LB:g=original	!	!LO:LB:g=original	!	!LO:LB:g=original	!	!	!	!	!
=56	=56	=56	=56	=56	=56	=56	=56	=56	=56	=56	=56	=56	=56	=56	=56	=56	=56	=56	=56	=56	=56	=56	=56	=56	=56	=56	=56	=56
4c\	4	.	4c\	.	4f/	.	4a/	.	4c\	-ca-	4c\	-ca-	4f\	-ca-	4a\	-ca-	4f\	.	4a\	.	4f/	.	4a/	.	4ff\	.	4aa\	.
4C/	3	.	4c\	.	4e/	.	4g/	.	4C/	-ta	4c\	-ta	4e\	-ta	4g\	-ta	4c/	.	4g\	.	4e/	.	4g/	.	4ee\	.	4gg\	.
!	!	!	!	!LO:DY:b:t=pia:color=red	!	!LO:DY:b:t=pia:color=red	!	!	!	!	!	!	!	!	!	!	!	!	!	!	!	!	!	!	!	!	!	!
4r	.	.	8r	p	8r	p	8r	.	4r	.	4r	.	4r	.	4r	.	4r	.	4r	.	4r	.	4r	.	8r	.	8r	.
!	!	!	!	!	!	!	!	!LO:DY:b:t=pia:color=red	!	!	!	!	!	!	!	!	!	!	!	!	!	!	!	!	!	!LO:DY:b:t=pia:color=red	!	!LO:DY:b:t=pia:color=red
.	.	.	8c\	.	8a/	.	8cc\	p	.	.	.	.	.	.	.	.	.	.	.	.	.	.	.	.	8aa\	p	8ccc\	p
=57	=57	=57	=57	=57	=57	=57	=57	=57	=57	=57	=57	=57	=57	=57	=57	=57	=57	=57	=57	=57	=57	=57	=57	=57	=57	=57	=57	=57
!	!	!LO:DY:b:t=piano:color=red	!	!	!	!	!	!	!	!	!	!	!	!	!	!	!	!LO:DY:a:t=pia:color=red	!	!LO:DY:b:t=pia:color=red	!	!LO:DY:b:t=pia:color=red	!	!LO:DY:b:t=piano:color=red	!	!	!	!
8F\L	6 4	p	8d\L	.	8b-\L	.	8dd|\L	.	4B-\	pec-	4f\	pec-	4b-\	pec-	4dd\	pec-	4F/	p	4f\	p	2.b-\	p	2.dd\	p	2.bb-\	.	2.ddd\	.
8F\	.	.	8d\	.	8b-\	.	8dd|\J	.	.	.	.	.	.	.	.	.	.	.	.	.	.	.	.	.	.	.	.	.
8F\	.	.	8d\	.	8b-\	.	8r	.	4B-\	-ca-	4f\	-ca-	4b-\	-ca-	4dd\	-ca-	8F/L	.	8f\L	.	.	.	.	.	.	.	.	.
!	!	!	!	!	!	!	!LO:TUP:a:problem:klamra łukowa,  kropka zamiast numeru	!	!	!	!	!	!	!	!	!	!	!	!	!	!	!	!	!	!	!	!	!
.	.	.	.	.	.	.	16qqgg/	.	.	.	.	.	.	.	.	.	.	.	.	.	.	.	.	.	.	.	.	.
8F\	.	.	8d\	.	8b-\	.	24ff\LL	.	.	.	.	.	.	.	.	.	8F/	.	8f\J	.	.	.	.	.	.	.	.	.
.	.	.	.	.	.	.	24ee\	.	.	.	.	.	.	.	.	.	.	.	.	.	.	.	.	.	.	.	.	.
.	.	.	.	.	.	.	24ff\JJ	.	.	.	.	.	.	.	.	.	.	.	.	.	.	.	.	.	.	.	.	.
8F\	.	.	8d\	.	8b-\	.	8bb-\L	.	4B-\	-ta	4f\	-ta	4b-\	-ta	4dd\	-ta	8F/	.	8f\L	.	.	.	.	.	.	.	.	.
8F\J	.	.	8d\J	.	8b-\J	.	8dd\J	.	.	.	.	.	.	.	.	.	8F/J	.	8f\J	.	.	.	.	.	.	.	.	.
!LO:LB:g=original	!	!	!	!	!LO:LB:g=original	!	!	!	!	!	!	!	!	!	!	!	!	!	!	!	!	!	!	!	!	!	!	!
=58	=58	=58	=58	=58	=58	=58	=58	=58	=58	=58	=58	=58	=58	=58	=58	=58	=58	=58	=58	=58	=58	=58	=58	=58	=58	=58	=58	=58
8F\L	5 3	.	8c\L	.	8a/L	.	8cc\L	.	2F\	mun-	2f\	mun-	2a\	mun-	2cc\	mun-	4F/	.	4f\	.	2.a/	.	2.cc\	.	2.aa\	.	2.ccc\	.
8F\	.	.	8c\	.	8a/	.	8cc\J	.	.	.	.	.	.	.	.	.	.	.	.	.	.	.	.	.	.	.	.	.
8F\	.	.	8c\	.	8a/	.	8r	.	.	.	.	.	.	.	.	.	8F/L	.	8f\L	.	.	.	.	.	.	.	.	.
!	!	!	!	!	!	!	!LO:TUP:a:problem:klamra łukowa, kropka zamiast numeru	!	!	!	!	!	!	!	!	!	!	!	!	!	!	!	!	!	!	!	!	!
.	.	.	.	.	.	.	16qqgg/	.	.	.	.	.	.	.	.	.	.	.	.	.	.	.	.	.	.	.	.	.
8F\	.	.	8c\	.	8a/	.	24ff\LL	.	.	.	.	.	.	.	.	.	8F/	.	8f\	.	.	.	.	.	.	.	.	.
.	.	.	.	.	.	.	24ee\	.	.	.	.	.	.	.	.	.	.	.	.	.	.	.	.	.	.	.	.	.
.	.	.	.	.	.	.	24ff\JJ	.	.	.	.	.	.	.	.	.	.	.	.	.	.	.	.	.	.	.	.	.
8F\	.	.	8c\	.	8a/	.	8aa\L	.	4F\	-di	4f\	-di	4a\	-di	4cc\	-di	8F/	.	8f\	.	.	.	.	.	.	.	.	.
8F\J	.	.	8c\J	.	8a/J	.	8cc\J	.	.	.	.	.	.	.	.	.	8F/J	.	8f\J	.	.	.	.	.	.	.	.	.
*	*	*	*	*	*Xtremolo	*	*	*	*	*	*	*	*	*	*	*	*	*	*	*	*	*	*	*	*	*	*	*
*	*	*	*Xtremolo	*	*	*	*	*	*	*	*	*	*	*	*	*	*	*	*	*	*	*	*	*	*	*	*	*
!	!	!	!	!	!	!	!LO:LB:g=original	!	!	!	!	!	!	!	!	!	!	!	!	!	!	!	!	!	!	!	!	!
=59	=59	=59	=59	=59	=59	=59	=59	=59	=59	=59	=59	=59	=59	=59	=59	=59	=59	=59	=59	=59	=59	=59	=59	=59	=59	=59	=59	=59
!LO:TX:t=P:problem:mixed beam	!	!LO:DY:b:t=forto:color=red	!	!LO:DY:b:t=forto:color=red	!	!LO:DY:a:t=forto:color=red	!	!	!	!	!	!	!	!	!	!	!	!LO:DY:b:t=forto:color=red	!	!	!	!LO:DY:b:t=forto:color=red	!	!LO:DY:b:t=forto:color=red	!	!LO:DY:b:color=red	!	!LO:DY:b:color=red
8C\L	7	f	(16e\LL	f	(16b-\LL	f	8bb-\	.	2C/	mi-	2c\	mi-	2g\	mi-	2ee\	mi-	4c/	f	4g\	.	(2b-\	f	(2ee\	f	2ee\	f	8bb-\	f
.	.	.	16g\)	.	16cc\)	.	.	.	.	.	.	.	.	.	.	.	.	.	.	.	.	.	.	.	.	.	.	.
8G\	.	.	(16e\	.	(16b-\	.	4gg\	.	.	.	.	.	.	.	.	.	.	.	.	.	.	.	.	.	.	.	4gg\	.
.	.	.	16g\JJ)	.	16cc\JJ)	.	.	.	.	.	.	.	.	.	.	.	.	.	.	.	.	.	.	.	.	.	.	.
8E\	.	.	(16e\LL	.	(16b-\LL	.	.	.	.	.	.	.	.	.	.	.	8c/L	.	8g\L	.	.	.	.	.	.	.	.	.
.	.	.	16g\)	.	16cc\)	.	.	.	.	.	.	.	.	.	.	.	.	.	.	.	.	.	.	.	.	.	.	.
8C\	.	.	(16e\	.	(16b-\	.	8ee\	.	.	.	.	.	.	.	.	.	8c/	.	8g\	.	.	.	.	.	.	.	8ee\	.
.	.	.	16g\JJ)	.	16cc\JJ)	.	.	.	.	.	.	.	.	.	.	.	.	.	.	.	.	.	.	.	.	.	.	.
8F\	3	.	(16f\LL	.	(16a\LL	.	(16ff\LL	.	4F\	-se-	4c\	-se-	4a\	-se-	4ff\	-se-	8f/	.	8g\	.	4a\)	.	4ff|\)	.	4ff\	.	(16ff\LL	.
.	.	.	16a\)	.	16cc\)	.	16cc\)	.	.	.	.	.	.	.	.	.	.	.	.	.	.	.	.	.	.	.	16cc\	.
8FF/J	.	.	(16f\	.	(16a\	.	16ff\	.	.	.	.	.	.	.	.	.	8f/J	.	8g\J	.	.	.	.	.	.	.	16ff\)	.
.	.	.	16a\JJ)	.	16cc\JJ)	.	16aa|\JJ	.	.	.	.	.	.	.	.	.	.	.	.	.	.	.	.	.	.	.	16aa|\JJ	.
!	!	!	!LO:LB:g=original	!	!	!	!	!	!LO:LB:g=original	!	!	!	!	!	!	!	!	!	!	!	!	!	!	!	!	!	!	!
=60	=60	=60	=60	=60	=60	=60	=60	=60	=60	=60	=60	=60	=60	=60	=60	=60	=60	=60	=60	=60	=60	=60	=60	=60	=60	=60	=60	=60
!LO:TX:t=P:problem:mixed beam	!	!	!	!	!	!	!	!	!	!	!	!	!	!	!	!	!	!	!	!	!	!	!	!	!	!	!	!
8C\L	7 5	.	(16b-\LL	.	(16e/LL	.	8bb-\	.	2C/	-re-	2c\	-re-	2g\	-re-	2ee\	-re-	8c/L	.	8g\L	.	(2b-\	.	(2ee\	.	2ee\	.	8bb-\	.
.	.	.	16cc\)	.	16g/)	.	.	.	.	.	.	.	.	.	.	.	.	.	.	.	.	.	.	.	.	.	.	.
8G\	.	.	(16b-\	.	(16e/	.	4gg\	.	.	.	.	.	.	.	.	.	16c/L	.	16g\L	.	.	.	.	.	.	.	4gg\	.
.	.	.	16cc\JJ)	.	16g/JJ)	.	.	.	.	.	.	.	.	.	.	.	16c/JJ	.	16g\JJ	.	.	.	.	.	.	.	.	.
8E\	.	.	(16b-\LL	.	(16e/LL	.	.	.	.	.	.	.	.	.	.	.	8c/L	.	8g\L	.	.	.	.	.	.	.	.	.
.	.	.	16cc\)	.	16g/)	.	.	.	.	.	.	.	.	.	.	.	.	.	.	.	.	.	.	.	.	.	.	.
8C\	.	.	(16b-\	.	(16e/	.	8ee\	.	.	.	.	.	.	.	.	.	8c/	.	8g\	.	.	.	.	.	.	.	8ee\	.
.	.	.	16cc\JJ)	.	16g/JJ)	.	.	.	.	.	.	.	.	.	.	.	.	.	.	.	.	.	.	.	.	.	.	.
8F\	3	.	(16a\LL	.	(16f/LL	.	16ff\LL	.	4F\	-re	4c\	-re	4a\	-re	4ff\	-re	8f/	.	8a\	.	4a\)	.	4ff|\)	.	4ff\	.	16ff\LL	.
.	.	.	16cc\)	.	16a/)	.	16cc\	.	.	.	.	.	.	.	.	.	.	.	.	.	.	.	.	.	.	.	16cc\	.
8FF/J	.	.	(16a\	.	(16f/	.	16ff\	.	.	.	.	.	.	.	.	.	8f/J	.	8a\J	.	.	.	.	.	.	.	16ff\	.
.	.	.	16cc\JJ)	.	16a/JJ)	.	16aa\JJ	.	.	.	.	.	.	.	.	.	.	.	.	.	.	.	.	.	.	.	16aa\JJ	.
!	!	!	!	!	!	!	!	!	!	!	!	!	!LO:LB:g=original	!	!	!	!	!	!	!	!	!	!	!	!LO:LB:g=original	!	!	!
=61	=61	=61	=61	=61	=61	=61	=61	=61	=61	=61	=61	=61	=61	=61	=61	=61	=61	=61	=61	=61	=61	=61	=61	=61	=61	=61	=61	=61
8BB-/L	.	.	8f\L	.	(16cc\LL	.	(16aa\LL	.	4r	.	4r	.	4r	.	4r	.	4r	.	4r	.	4b-\	.	4gg\	.	8cc\L	.	16aa\LL	.
.	.	.	.	.	16b-\)	.	16gg\)	.	.	.	.	.	.	.	.	.	.	.	.	.	.	.	.	.	.	.	16gg\	.
8D/J	.	.	8g\J	.	16dd|\	.	16bb-|\	.	.	.	.	.	.	.	.	.	.	.	.	.	.	.	.	.	16dd\L	.	16bb-\	.
.	.	.	.	.	16b-|\JJ	.	16gg|\JJ	.	.	.	.	.	.	.	.	.	.	.	.	.	.	.	.	.	16b-\JJ	.	16gg\JJ	.
4C/	.	.	4a\	.	4a/	.	4ff\	.	4c\	no-	4c\	no-	4a\	no-	4ff\	no-	4f\	.	4a\	.	4a\	.	4ff\	.	4a/	.	4ff\	.
4CC/	.	.	4b-\	.	4g/	.	4ee\	.	4C/	-bis	4c\	-bis	4g\	-bis	4ee\	-bis	4c/	.	4g\	.	4g/	.	4ee\	.	4g/	.	4ee\	.
=62	=62	=62	=62	=62	=62	=62	=62	=62	=62	=62	=62	=62	=62	=62	=62	=62	=62	=62	=62	=62	=62	=62	=62	=62	=62	=62	=62	=62
!	!	!	!	!	!	!	!	!	!LO:N:vis=0	!	!LO:N:vis=0	!	!LO:N:vis=0	!	!LO:N:vis=0	!	!	!	!	!	!	!	!	!	!	!	!	!
!LO:TX:a:t=1	!	!	!LO:TX:b:i:t=dolce:color=red	!	!	!LO:DY:b:t=pia:color=red	!	!LO:DY:b:t=pia:color=red	!LO:TX:a:t=2	!	!LO:TX:a:t=2	!	!LO:TX:a:t=2	!	!LO:TX:a:t=2	!	!LO:TX:a:t=1	!	!LO:TX:a:t=1	!	!LO:TX:a:t=1	!	!LO:TX:a:t=1	!	!LO:TX:a:t=1	!	!LO:TX:a:t=1	!
2.r	.	.	8a\L	.	8ff|\L	p	8aa|\L	p	1.r	.	1.r	.	1.r	.	1.r	.	2.r	.	2.r	.	2.r	.	2.r	.	2.r	.	2.r	.
.	.	.	8g\	.	8ee|\	.	8gg|\	.	.	.	.	.	.	.	.	.	.	.	.	.	.	.	.	.	.	.	.	.
.	.	.	8f\	.	8dd|\	.	8ff|\	.	.	.	.	.	.	.	.	.	.	.	.	.	.	.	.	.	.	.	.	.
.	.	.	8e\	.	8cc|\	.	8ee|\	.	.	.	.	.	.	.	.	.	.	.	.	.	.	.	.	.	.	.	.	.
.	.	.	8d\	.	8b-|\	.	8dd|\	.	.	.	.	.	.	.	.	.	.	.	.	.	.	.	.	.	.	.	.	.
.	.	.	8c\J	.	8a|\J	.	8cc|\J	.	.	.	.	.	.	.	.	.	.	.	.	.	.	.	.	.	.	.	.	.
=63	=63	=63	=63	=63	=63	=63	=63	=63	=63	=63	=63	=63	=63	=63	=63	=63	=63	=63	=63	=63	=63	=63	=63	=63	=63	=63	=63	=63
4r	.	.	8B-/L	.	8g|/L	.	8b-|\L	.	.	.	.	.	.	.	.	.	4r	.	4r	.	4r	.	4r	.	4r	.	4r	.
.	.	.	8A/	.	8f|/	.	8a|\	.	.	.	.	.	.	.	.	.	.	.	.	.	.	.	.	.	.	.	.	.
4r	.	.	8G/J	.	8e|/J	.	8g|\J	.	.	.	.	.	.	.	.	.	4r	.	4r	.	4r	.	4r	.	4r	.	4r	.
.	.	.	8r	.	8r	.	8r	.	.	.	.	.	.	.	.	.	.	.	.	.	.	.	.	.	.	.	.	.
!	!	!	!	!LO:DY:b:color=red	!	!	!	!	!	!	!	!	!	!	!	!	!LO:LB:g=original	!	!	!	!	!	!	!	!	!	!	!
8r	.	.	8r	f	8r	.	8r	.	.	.	.	.	.	.	.	.	8r	.	8r	.	8r	.	8r	.	8r	.	8r	.
!	!	!	!	!	!	!LO:DY:b:t=forto:color=red	!	!LO:DY:b:t=fort:color=red	!	!	!	!	!	!	!	!	!	!	!	!	!	!	!	!	!	!	!	!
8E\	.	.	8cc\	.	8gg\	f	8bb-|\	f	.	.	.	.	.	.	.	.	8c/	.	8g\	.	8gg\	.	8bb-\	.	8ee\	.	8bb-\	.
!	!	!	!	!	!LO:LB:g=original	!	!	!	!	!	!	!	!	!	!	!	!	!	!	!	!	!	!	!	!	!	!	!
=64	=64	=64	=64	=64	=64	=64	=64	=64	=64	=64	=64	=64	=64	=64	=64	=64	=64	=64	=64	=64	=64	=64	=64	=64	=64	=64	=64	=64
8F\L	.	.	8cc\L	.	(16ff\LL	.	(16aa\LL	.	8F\	mi-	8c\	mi-	8a\	mi-	8ff\	mi-	8f\	.	8a\	.	8ff\L	.	8aa\L	.	16ff\LL	.	16aa\LL	.
.	.	.	.	.	16aa\)	.	16ccc\)	.	.	.	.	.	.	.	.	.	.	.	.	.	.	.	.	.	16aa\	.	16ccc\	.
8B-\J	.	.	8dd\J	.	16gg|\	.	16bb-|\	.	8B-\	-se-	8d\	-se-	8b-\	-se-	8gg\	-se-	8r	.	8r	.	8b-\J	.	8gg\J	.	16gg\	.	16bb-\	.
.	.	.	.	.	16bb-|\JJ	.	16ddd|\JJ	.	.	.	.	.	.	.	.	.	.	.	.	.	.	.	.	.	16bb-\JJ	.	16ddd\JJ	.
4c\	.	.	4cc\	.	4a/	.	4ff\	.	4c\	-re-	4c\	-re-	4a\	-re-	4ff\	-re-	4f\	.	4a\	.	4a/	.	4ff\	.	4aa\	.	4fff\	.
4C/	.	.	4cc\	.	4g/	.	4ee\	.	4C/	-re	4c\	-re	4g\	-re	4ee\	-re	4c/	.	4g\	.	4g/	.	4ee\	.	4gg\	.	4eee\	.
!	!	!	!	!	!	!	!	!	!	!	!	!	!	!	!LO:LB:g=original	!	!	!	!	!	!	!	!	!	!	!	!	!
=65||	=65||	=65||	=65||	=65||	=65||	=65||	=65||	=65||	=65||	=65||	=65||	=65||	=65||	=65||	=65||	=65||	=65||	=65||	=65||	=65||	=65||	=65||	=65||	=65||	=65||	=65||	=65||	=65||
*M3/8	*	*	*M3/8	*	*M3/8	*	*M3/8	*	*M3/8	*	*M3/8	*	*M3/8	*	*M3/8	*	*M3/8	*	*M3/8	*	*M3/8	*	*M3/8	*	*M3/8	*	*M3/8	*
!	!	!	!	!	!	!	!	!	!	!	!	!	!	!	!	!	!	!	!	!	!	!	!	!	!LO:TX:b:i:t=NB:color=red	!	!	!
!	!	!	!	!	!	!	!	!	!	!	!	!	!	!	!	!	!	!	!	!	!	!	!LO:N:vis=00	!	!LO:N:vis=00	!	!LO:N:vis=00	!
!LO:TX:b:t=Pedal	!	!	!LO:TX:a:B:t=Allegro Vivace	!	!LO:TX:a:B:t=Allegro Vivace	!	!	!	!LO:N:vis=00	!	!LO:N:vis=00	!	!	!	!	!	!	!	!	!	!LO:N:vis=00	!	!LO:TX:a:B:t=Allegro Vivace	!	!LO:TX:a:t=4	!	!LO:TX:a:t=4	!
!LO:TX:B:a:t=Allegro	!	!LO:DY:b:t=pia:color=red	!	!LO:DY:b:t=pia:color=red	!	!LO:DY:b:t=pia:color=red	!LO:TX:a:B:t=Allegro Vivace	!LO:DY:b:t=pia:color=red	!LO:TX:a:t=4	!	!LO:TX:a:t=4	!	!LO:TX:a:B:t=Allo&colon; Vivace	!	!LO:TX:a:B:t=Allo Vivace	!	!LO:TX:a:B:t=allegro vivace	!LO:DY:b:color=red	!LO:TX:a:B:t=Allegro	!LO:DY:b:color=red	!LO:TX:a:t=4	!	!LO:TX:a:t=4	!	!LO:TX:a:B:t=Allegro Vivace	!	!LO:TX:a:B:t=Allegro Vivace	!
4F|\	.	p	4f\	p	(4a/	p	(4cc\	p	1.r	.	1.r	.	4a\	Mi-	4cc\	Mi-	4F/	f	4f\	f	1.r	.	1.r	.	1.r	.	1.r	.
8r	.	.	8r	.	8f|/)	.	8a|\)	.	.	.	.	.	8f\	-se-	8a\	-se-	8r	.	8r	.	.	.	.	.	.	.	.	.
!	!	!	!	!	!	!	!	!	!	!	!	!	!	!	!	!	!	!	!LO:LB:g=original	!	!	!	!	!	!	!	!	!
=66	=66	=66	=66	=66	=66	=66	=66	=66	=66	=66	=66	=66	=66	=66	=66	=66	=66	=66	=66	=66	=66	=66	=66	=66	=66	=66	=66	=66
!	!	!	!	!	!	!	!	!	!	!	!	!	!	!	!	!	!LO:TX:i:b:t=NB	!	!	!	!	!	!	!	!	!	!	!
!	!	!	!	!	!	!	!	!	!	!	!	!	!	!	!	!	!LO:TX:a:t=3	!	!LO:TX:a:t=3	!	!	!	!	!	!	!	!	!
!	!	!	!	!	!	!	!	!	!	!	!	!	!	!	!	!	!LO:N:vis=0	!	!LO:N:vis=0	!	!	!	!	!	!	!	!	!
4BB-|/	.	.	4f\	.	(4b-/	.	(4dd\	.	.	.	.	.	4b-\	-re-	4dd\	-re-	2.r	.	2.r	.	.	.	.	.	.	.	.	.
8r	.	.	8r	.	8g|/)	.	8b-|\)	.	.	.	.	.	8g\	-re	8b-\	-re	.	.	.	.	.	.	.	.	.	.	.	.
!	!	!	!	!	!	!	!LO:LB:g=original	!	!	!	!	!	!	!	!	!	!	!	!	!	!	!	!	!	!	!	!	!
=67	=67	=67	=67	=67	=67	=67	=67	=67	=67	=67	=67	=67	=67	=67	=67	=67	=67	=67	=67	=67	=67	=67	=67	=67	=67	=67	=67	=67
8C|/	.	.	4c\	.	(8e/L	.	(8g/L	.	.	.	.	.	8e\L	no-	8g\L	no-	.	.	.	.	.	.	.	.	.	.	.	.
8r	.	.	.	.	8f/	.	8a/	.	.	.	.	.	8f\J	.	8a\J	.	.	.	.	.	.	.	.	.	.	.	.	.
8C|/	.	.	8c\	.	8g/J)	.	8b-/J)	.	.	.	.	.	8g\	-bis	8b-\	-bis	.	.	.	.	.	.	.	.	.	.	.	.
=68	=68	=68	=68	=68	=68	=68	=68	=68	=68	=68	=68	=68	=68	=68	=68	=68	=68	=68	=68	=68	=68	=68	=68	=68	=68	=68	=68	=68
!	!	!	!	!	!	!	!	!	!	!	!	!	!	!	!	!	!LO:TX:b:i:t=Solo:color=red	!	!LO:TX:b:i:t=NB	!	!	!	!	!	!	!	!	!
!LO:TX:t=P:problem:mixed beam	!	!	!	!	!	!	!	!	!	!	!	!	!	!	!	!	!LO:N:vis=1	!	!LO:N:vis=1	!	!	!	!	!	!	!	!	!
8F|\L	.	.	4c\	.	(4g/	.	(4b-\	.	.	.	.	.	4g\	no-	4b-\	no-	4.r	.	4.r	.	.	.	.	.	.	.	.	.
8C|\	.	.	.	.	.	.	.	.	.	.	.	.	.	.	.	.	.	.	.	.	.	.	.	.	.	.	.	.
8FF|/J	.	.	8c\	.	8f/)	.	8a|\)	.	.	.	.	.	8f\	-bis	8a\	-bis	.	.	.	.	.	.	.	.	.	.	.	.
!LO:LB:g=original	!	!	!	!	!	!	!	!	!	!	!	!	!	!	!	!	!	!	!	!	!	!	!	!	!	!	!LO:LB:g=original	!
=69	=69	=69	=69	=69	=69	=69	=69	=69	=69	=69	=69	=69	=69	=69	=69	=69	=69	=69	=69	=69	=69	=69	=69	=69	=69	=69	=69	=69
!	!	!	!	!	!	!	!	!	!	!	!	!	!	!	!	!	!	!	!	!	!LO:TX:b:i:t=NB	!	!	!	!	!	!	!
!LO:TX:b:t=Con Org&colon;	!	!LO:DY:b:t=f&colon;:color=red	!	!LO:DY:b:t=fort:color=red	!	!LO:DY:b:t=forto:color=red	!	!LO:DY:b:t=fort:color=red	!LO:TX:a:B:t=Allegro	!	!LO:TX:a:B:t=Allegro	!	!	!	!	!	!	!	!	!	!LO:TX:a:B:t=Allegro Vivace	!	!LO:TX:b:i:t=NB	!	!LO:TX:b:i:t=Solo	!	!	!
8C/	7 5	f	8cc|\	f	8gg\	f	8bb-|\	f	8c\	mi-	8B-\	mi-	8g\	mi-	8ee\	mi-	8r	.	8r	.	8r	.	8r	.	8r	.	8r	.
!	!	!	!	!	!	!	!	!	!	!	!	!	!	!	!	!	!	!	!LO:TX:b:i:t=Solo:color=red	!	!LO:TX:b:i:t=Solo:color=red	!	!LO:TX:b:i:t=Solo:color=red	!	!	!	!LO:TX:b:i:t=Solo:color=red	!
8r	.	.	8r	.	8r	.	8r	.	8r	.	8r	.	8r	.	8r	.	8C/	.	8g|\	.	8b-|\	.	8ee|\	.	8ee|\	.	8bb-|\	.
8C/	.	.	8cc|\	.	8ee|\	.	8gg|\	.	8c\	-se-	8B-\	-se-	8g\	-se-	8ee\	-se-	8r	.	8r	.	8r	.	8r	.	8r	.	8r	.
!	!	!	!	!	!	!	!	!	!	!	!	!	!	!	!	!	!	!	!	!	!	!	!LO:LB:g=original	!	!	!	!	!
=70	=70	=70	=70	=70	=70	=70	=70	=70	=70	=70	=70	=70	=70	=70	=70	=70	=70	=70	=70	=70	=70	=70	=70	=70	=70	=70	=70	=70
8F\	.	.	8cc|\	.	8ff|\	.	8aa|\	.	8F\	-re-	8c\	-re-	8a\	-re-	8ff\	-re-	8r	.	8r	.	8r	.	8r	.	8r	.	8r	.
8r	.	.	8r	.	8r	.	8r	.	8r	.	8r	.	8r	.	8r	.	8F/	.	8a|\	.	8a|/	.	8ff|\	.	8ff|\	.	8aa|\	.
!	!	!	!	!	!	!	!	!	!	!	!LO:LB:g=original	!	!	!	!	!	!	!	!	!	!	!	!	!	!	!	!	!
8BB-/	.	.	8cc|\	.	8a/	.	8ff|\	.	8F\	-re	8c\	-re	8a\	-re	8ff\	-re	8r	.	8r	.	8r	.	8r	.	8r	.	8r	.
!	!	!	!LO:LB:g=original	!	!	!	!	!	!	!	!	!	!	!	!	!	!	!	!	!	!LO:LB:g=original	!	!	!	!	!	!	!
=71	=71	=71	=71	=71	=71	=71	=71	=71	=71	=71	=71	=71	=71	=71	=71	=71	=71	=71	=71	=71	=71	=71	=71	=71	=71	=71	=71	=71
!	!	!	!	!	!	!	!	!	!	!	!	!	!	!	!	!	!	!	!	!	!	!	!	!	!	!	!	!LO:DY:b:t=for:color=red
8BB-/L	.	.	8dd\L	.	(4b-/	.	(8gg\L	.	4B-\	no-	(4d\	no-	4b-\	no-	8gg\L	no-	4c/	.	4g\	.	4b-\	.	(8gg\L	.	8b-\L	.	8gg\L	f
8GG/	.	.	8d\	.	.	.	8bb-\)	.	.	.	.	.	.	.	8bb-\J	.	.	.	.	.	.	.	8bb-\)	.	8dd\	.	8bb-\	.
8C/J	.	.	8c\J	.	8g/)	.	8ee|\J	.	8c\	.	8c\)	.	8g\	.	8ee\	.	8c/	.	8g\	.	8g/	.	8ee|\J	.	8gg\J	.	8eee\J	.
=72	=72	=72	=72	=72	=72	=72	=72	=72	=72	=72	=72	=72	=72	=72	=72	=72	=72	=72	=72	=72	=72	=72	=72	=72	=72	=72	=72	=72
4F\	.	.	4c\	.	8a/	.	8ff\	.	4F\	-bis	4c\	-bis	4a\	-bis	4ff\	-bis	4A/	.	4f\	.	4a/	.	4ff\	.	8aa\	.	8fff\	.
!	!	!	!	!	!	!	!	!	!	!	!	!	!	!	!	!	!	!	!	!	!	!	!	!	!	!	!LO:TX:i:b:t=dolce:color=red	!
.	.	.	.	.	8r	.	8r	.	.	.	.	.	.	.	.	.	.	.	.	.	.	.	.	.	8r	.	8r	.
!	!	!	!	!	!	!LO:DY:b:t=pia:color=red	!	!LO:DY:b:t=pia:color=red	!	!	!	!	!	!	!	!	!	!	!	!	!	!	!	!	!LO:TX:b:i:t=dolce:color=red	!	!	!
8r	.	.	8r	.	16f/LL	p	(16a/LL	p	8r	.	8r	.	8r	.	8r	.	8r	.	8r	.	8r	.	8r	.	(16ff\LL	.	16aa\LL	.
.	.	.	.	.	16g/JJ	.	16b-/JJ)	.	.	.	.	.	.	.	.	.	.	.	.	.	.	.	.	.	16gg\JJ)	.	16bb-\JJ	.
!	!	!	!	!	!	!	!	!	!LO:LB:g=original	!	!	!	!LO:LB:g=original	!	!	!	!	!	!	!	!	!	!	!	!	!	!	!
=73	=73	=73	=73	=73	=73	=73	=73	=73	=73	=73	=73	=73	=73	=73	=73	=73	=73	=73	=73	=73	=73	=73	=73	=73	=73	=73	=73	=73
!	!	!	!	!	!	!	!	!	!	!	!	!	!LO:N:vis=00	!	!LO:N:vis=00	!	!	!	!	!	!	!	!	!	!	!	!	!
!LO:TX:b:t=Pedal	!	!	!	!LO:DY:b:color=red	!	!	!	!	!	!	!	!	!LO:TX:a:t=4	!	!LO:TX:a:t=4	!	!LO:TX:a:i:t=dolce:color=red	!	!LO:TX:b:i:t=dolce:color=red	!	!LO:TX:a:t=1	!	!LO:TX:a:t=1	!	!	!	!	!
4F|\	.	.	4f\	p	(4a/	.	(4cc\	.	4A\	mi-	4c\	mi-	1.r	.	1.r	.	4F/	.	4f\	.	4.r	.	4.r	.	4aa\	.	(4ccc\	.
8r	.	.	8r	.	8f|/)	.	8a|/)	.	8F\	-se-	8A\	-se-	.	.	.	.	8r	.	8r	.	.	.	.	.	8ff\	.	8aa\)	.
=74	=74	=74	=74	=74	=74	=74	=74	=74	=74	=74	=74	=74	=74	=74	=74	=74	=74	=74	=74	=74	=74	=74	=74	=74	=74	=74	=74	=74
!	!	!LO:DY:b:t=pia:color=red	!	!	!	!	!	!	!	!	!	!	!	!	!	!	!	!	!	!	!	!	!	!	!	!	!	!
4BB-/	.	p	4B-/	.	(4b-\	.	(4dd\	.	4B-\	-re-	4d\	-re-	.	.	.	.	4F/	.	4f\	.	8r	.	8r	.	4bb-\	.	(4ddd\	.
.	.	.	.	.	.	.	.	.	.	.	.	.	.	.	.	.	.	.	.	.	8r	.	8r	.	.	.	.	.
!	!	!	!	!	!	!	!	!	!	!	!	!	!	!	!	!	!	!	!	!	!LO:TX:b:i:t=dolce:color=red	!	!LO:TX:b:i:t=dolce:color=red	!	!	!	!	!
8r	.	.	8r	.	8g|\)	.	8b-|\)	.	8G\	-re	8B-\	-re	.	.	.	.	8r	.	8r	.	8gg\	.	8bb-\	.	8gg\	.	8bb-\)	.
!	!	!	!	!	!	!	!	!	!	!	!	!	!	!	!	!	!	!	!	!	!	!	!	!	!LO:LB:g=original	!	!	!
=75	=75	=75	=75	=75	=75	=75	=75	=75	=75	=75	=75	=75	=75	=75	=75	=75	=75	=75	=75	=75	=75	=75	=75	=75	=75	=75	=75	=75
8C|/	.	.	8c\L	.	(8e/L	.	(8g/L	.	8E\L	mi-	8G/L	no-	.	.	.	.	8C/	.	8c/	.	(8ee\L	.	(8gg\L	.	(8ee\L	.	(8gg\L	.
8r	.	.	8c\	.	8f/	.	8a/	.	8F\J	.	8A/J	.	.	.	.	.	8r	.	8r	.	8ff\	.	8aa\	.	8ff\	.	8aa\	.
8C|/	.	.	8c\J	.	8g/J)	.	8b-/J)	.	8G\	-se-	8B-\	-bis	.	.	.	.	8c/	.	8c/	.	8gg\J)	.	8bb-\J)	.	8gg\J)	.	8bb-\J)	.
=76	=76	=76	=76	=76	=76	=76	=76	=76	=76	=76	=76	=76	=76	=76	=76	=76	=76	=76	=76	=76	=76	=76	=76	=76	=76	=76	=76	=76
!LO:TX:t=P:problem:mixed beam	!	!	!	!	!	!	!	!	!	!	!	!	!	!	!	!	!	!	!	!LO:DY:b:color=red	!	!	!	!	!	!	!	!
8F|\L	.	.	4c\	.	(4g/	.	(4b-/	.	4G\	-re-	4B-\	no-	.	.	.	.	8f/L	.	4f\	f	4gg\	.	(4bb-\	.	(4gg\	.	(4bb-\	.
8C|\	.	.	.	.	.	.	.	.	.	.	.	.	.	.	.	.	8c/	.	.	.	.	.	.	.	.	.	.	.
8FF|/J	.	.	8c\	.	8f/)	.	8a|/)	.	8F\	-re	8A\	-bis	.	.	.	.	8F/J	.	8f\	.	8ff\	.	8aa|\)	.	8ff|\)	.	8aa|\)	.
=77	=77	=77	=77	=77	=77	=77	=77	=77	=77	=77	=77	=77	=77	=77	=77	=77	=77	=77	=77	=77	=77	=77	=77	=77	=77	=77	=77	=77
*Xtremolo	*	*	*	*	*	*	*	*	*	*	*	*	*	*	*	*	*	*	*	*	*	*	*	*	*	*	*	*
!LO:TX:b:t=Org&colon;	!	!LO:DY:b:color=red	!	!LO:DY:b:color=red	!	!LO:DY:b:t=fort:color=red	!	!LO:DY:b:t=fort:color=red	!	!	!	!	!	!	!	!	!	!LO:DY:b:color=red	!	!	!	!LO:DY:b:color=red	!	!LO:DY:b:t=for:color=red	!	!LO:DY:b:color=red	!	!LO:DY:b:color=red
8E\L	7 3	f	8cc|\L	f	8g|/L	f	(16bb-\LL	f	4.c\	mi-	4.B-\	mi-	4.g\	mi-	4.ee\	mi-	4.c/	f	4.g\	.	(4.ee\	f	(4.gg\	f	4.ee\	f	(16bb-\LL	f
.	.	.	.	.	.	.	16gg\)	.	.	.	.	.	.	.	.	.	.	.	.	.	.	.	.	.	.	.	16gg\)	.
8E\	.	.	8cc|\	.	8g|/	.	16ee|\	.	.	.	.	.	.	.	.	.	.	.	.	.	.	.	.	.	.	.	16ee|\	.
.	.	.	.	.	.	.	16cc|\	.	.	.	.	.	.	.	.	.	.	.	.	.	.	.	.	.	.	.	16cc|\	.
8E\J	.	.	8cc|\J	.	8g|/J	.	16bb-|\	.	.	.	.	.	.	.	.	.	.	.	.	.	.	.	.	.	.	.	16bb-|\	.
.	.	.	.	.	.	.	16cc|\JJ	.	.	.	.	.	.	.	.	.	.	.	.	.	.	.	.	.	.	.	16cc|\JJ	.
!	!	!	!	!	!	!	!LO:LB:g=original	!	!	!	!	!	!	!	!	!	!LO:LB:g=original	!	!	!	!	!	!	!	!	!	!	!
=78	=78	=78	=78	=78	=78	=78	=78	=78	=78	=78	=78	=78	=78	=78	=78	=78	=78	=78	=78	=78	=78	=78	=78	=78	=78	=78	=78	=78
8F\L	3	.	8cc|\L	.	8a|/L	.	16aa|\LL	.	4.F\	-se-	4.c\	-se-	4.a\	-se-	4.ff\	-se-	4.f\	.	4.a\	.	4.ff\)	.	4.aa\)	.	(16ff\LL	.	16aa|\LL	.
.	.	.	.	.	.	.	16ff|\	.	.	.	.	.	.	.	.	.	.	.	.	.	.	.	.	.	16cc\	.	16ff|\	.
8F\	.	.	8cc|\	.	8a|/	.	16aa|\	.	.	.	.	.	.	.	.	.	.	.	.	.	.	.	.	.	16a\	.	16aa|\	.
.	.	.	.	.	.	.	16ff|\	.	.	.	.	.	.	.	.	.	.	.	.	.	.	.	.	.	16cc\JJ)	.	16ff|\	.
8F\J	.	.	8cc|\J	.	8a|/J	.	16aa|\	.	.	.	.	.	.	.	.	.	.	.	.	.	.	.	.	.	16ff|\LL	.	16aa|\	.
.	.	.	.	.	.	.	16ff|\JJ	.	.	.	.	.	.	.	.	.	.	.	.	.	.	.	.	.	16aa|\JJ	.	16ff|\JJ	.
!	!	!	!	!	!LO:LB:g=original	!	!	!	!	!	!	!	!	!	!	!	!	!	!	!	!	!	!	!	!	!	!	!
=79	=79	=79	=79	=79	=79	=79	=79	=79	=79	=79	=79	=79	=79	=79	=79	=79	=79	=79	=79	=79	=79	=79	=79	=79	=79	=79	=79	=79
*tremolo	*	*	*	*	*	*	*	*	*	*	*	*	*	*	*	*	*	*	*	*	*	*	*	*	*	*	*	*
8C/L	5	.	8g|\L	.	8b-|/L	.	(16gg\LL	.	4.E\	-re-	4.c\	-re-	4.b-\	-re-	4.gg\	-re-	4.c/	.	4.g\	.	4.b-\	.	(4.ee\	.	4.bb-\	.	(16gg\LL	.
.	.	.	.	.	.	.	16ee\	.	.	.	.	.	.	.	.	.	.	.	.	.	.	.	.	.	.	.	16ee\)	.
8C/	.	.	8g|\	.	8b-|/	.	16cc\	.	.	.	.	.	.	.	.	.	.	.	.	.	.	.	.	.	.	.	16cc|\	.
.	.	.	.	.	.	.	16ee\)	.	.	.	.	.	.	.	.	.	.	.	.	.	.	.	.	.	.	.	16ee|\	.
8C/J	.	.	8g|\J	.	8b-|/J	.	16gg|\	.	.	.	.	.	.	.	.	.	.	.	.	.	.	.	.	.	.	.	16gg|\	.
.	.	.	.	.	.	.	16ee|\JJ	.	.	.	.	.	.	.	.	.	.	.	.	.	.	.	.	.	.	.	16ee|\JJ	.
=80	=80	=80	=80	=80	=80	=80	=80	=80	=80	=80	=80	=80	=80	=80	=80	=80	=80	=80	=80	=80	=80	=80	=80	=80	=80	=80	=80	=80
!	!	!	!	!	!	!	!	!	!	!	!	!	!	!	!	!	!	!	!	!LO:DY:b:t=pia:color=red	!	!	!	!	!	!	!	!
8F\L	3	.	8cc|\L	.	8a|/L	.	16ff\LL	.	4.F\	-re	4.c\	-re	4.a\	-re	4.ff\	-re	4.A/	.	4.f\	p	4.a/	.	4.ff\)	.	4aa\	.	16ff\LL	.
.	.	.	.	.	.	.	16cc\	.	.	.	.	.	.	.	.	.	.	.	.	.	.	.	.	.	.	.	16cc\	.
8F\	.	.	8cc|\	.	8a|/	.	16ff\	.	.	.	.	.	.	.	.	.	.	.	.	.	.	.	.	.	.	.	16ff\	.
.	.	.	.	.	.	.	16cc\	.	.	.	.	.	.	.	.	.	.	.	.	.	.	.	.	.	.	.	16cc\	.
8F\J	.	.	8cc|\J	.	8a|/J	.	16ff\	.	.	.	.	.	.	.	.	.	.	.	.	.	.	.	.	.	8ff\	.	16ff\	.
.	.	.	.	.	.	.	16aa\JJ	.	.	.	.	.	.	.	.	.	.	.	.	.	.	.	.	.	.	.	16aa\JJ	.
!	!	!	!	!	!	!	!	!	!	!	!	!	!	!	!LO:LB:g=original	!	!	!	!	!	!	!	!	!	!	!	!	!
=81	=81	=81	=81	=81	=81	=81	=81	=81	=81	=81	=81	=81	=81	=81	=81	=81	=81	=81	=81	=81	=81	=81	=81	=81	=81	=81	=81	=81
!	!	!LO:DY:b:t=pia:color=red	!	!LO:DY:b:t=pia:color=red	!	!LO:DY:b:t=pia:color=red	!	!	!	!	!	!	!	!	!	!	!	!LO:DY:b:t=pia:color=red	!	!	!	!LO:DY:b:t=pia:color=red	!	!LO:DY:b:t=pia:color=red	!	!LO:DY:b:color=red	!	!LO:DY:b:t=pia:color=red
8E\L	7 5	p	8cc|\L	p	8g/L	p	(16bb-\LL	.	4.c\	mi-	4.B-\	mi-	4.g\	mi-	4.ee\	mi-	4.c/	p	4.g\	.	(4.ee\	p	(4.gg\	p	4.ee\	p	(16bb-\LL	p
.	.	.	.	.	.	.	16gg\)	.	.	.	.	.	.	.	.	.	.	.	.	.	.	.	.	.	.	.	16gg\)	.
8E\	.	.	8cc|\	.	8g/	.	16ee|\	.	.	.	.	.	.	.	.	.	.	.	.	.	.	.	.	.	.	.	16ee|\	.
.	.	.	.	.	.	.	16cc|\	.	.	.	.	.	.	.	.	.	.	.	.	.	.	.	.	.	.	.	16cc|\	.
8E\J	.	.	8cc|\J	.	8g/J	.	16bb-|\	.	.	.	.	.	.	.	.	.	.	.	.	.	.	.	.	.	.	.	(16bb-\	.
.	.	.	.	.	.	.	16cc|\JJ	.	.	.	.	.	.	.	.	.	.	.	.	.	.	.	.	.	.	.	16cc\JJ)	.
!LO:LB:g=original	!	!	!	!	!	!	!	!	!	!	!	!	!	!	!	!	!	!	!	!	!	!	!	!	!	!	!	!
=82	=82	=82	=82	=82	=82	=82	=82	=82	=82	=82	=82	=82	=82	=82	=82	=82	=82	=82	=82	=82	=82	=82	=82	=82	=82	=82	=82	=82
*Xtremolo	*	*	*	*	*	*	*	*	*	*	*	*	*	*	*	*	*	*	*	*	*	*	*	*	*	*	*	*
8F\L	3	.	8cc|\L	.	8a/L	.	16aa|\LL	.	4.F\	-se-	4.c\	-se-	4.a\	-se-	4.ff\	-se-	4.f\	.	4.a\	.	4.ff\)	.	4.aa\)	.	(16ff\LL	.	16aa\LL	.
.	.	.	.	.	.	.	16ff|\	.	.	.	.	.	.	.	.	.	.	.	.	.	.	.	.	.	16cc\)	.	16ff\	.
8F\	.	.	8cc|\	.	8a/	.	16aa|\	.	.	.	.	.	.	.	.	.	.	.	.	.	.	.	.	.	(16ff\	.	16aa\	.
.	.	.	.	.	.	.	16ff|\	.	.	.	.	.	.	.	.	.	.	.	.	.	.	.	.	.	16cc\JJ)	.	16ff\	.
8F\J	.	.	8cc|\J	.	8a/J	.	16aa|\	.	.	.	.	.	.	.	.	.	.	.	.	.	.	.	.	.	16ff|\LL	.	16aa\	.
.	.	.	.	.	.	.	16ff|\JJ	.	.	.	.	.	.	.	.	.	.	.	.	.	.	.	.	.	16aa|\JJ	.	16ff\JJ	.
*tremolo	*	*	*	*	*	*	*	*	*	*	*	*	*	*	*	*	*	*	*	*	*	*	*	*	*	*	*	*
=83	=83	=83	=83	=83	=83	=83	=83	=83	=83	=83	=83	=83	=83	=83	=83	=83	=83	=83	=83	=83	=83	=83	=83	=83	=83	=83	=83	=83
8C/L	5	.	8g\L	.	8b-\L	.	(16gg\LL	.	4.C/	-re-	4.c\	-re-	4.b-\	-re-	4.gg\	-re-	4.c/	.	4.g\	.	(4.b-\	.	(4.ee\	.	4.bb-\	.	(16gg\LL	.
.	.	.	.	.	.	.	16ee\)	.	.	.	.	.	.	.	.	.	.	.	.	.	.	.	.	.	.	.	16ee\)	.
8C/	.	.	8g\	.	8b-\	.	16cc|\	.	.	.	.	.	.	.	.	.	.	.	.	.	.	.	.	.	.	.	16cc|\	.
.	.	.	.	.	.	.	16ee|\	.	.	.	.	.	.	.	.	.	.	.	.	.	.	.	.	.	.	.	16ee|\	.
8C/J	.	.	8g\J	.	8b-\J	.	16gg|\	.	.	.	.	.	.	.	.	.	.	.	.	.	.	.	.	.	.	.	(16gg\	.
.	.	.	.	.	.	.	16ee|\JJ	.	.	.	.	.	.	.	.	.	.	.	.	.	.	.	.	.	.	.	16ee\JJ)	.
*Xtremolo	*	*	*	*	*	*	*	*	*	*	*	*	*	*	*	*	*	*	*	*	*	*	*	*	*	*	*	*
!	!	!	!	!	!	!	!	!	!	!	!	!	!	!	!	!	!	!	!	!	!	!	!LO:LB:g=original	!	!	!	!	!
=84	=84	=84	=84	=84	=84	=84	=84	=84	=84	=84	=84	=84	=84	=84	=84	=84	=84	=84	=84	=84	=84	=84	=84	=84	=84	=84	=84	=84
*	*	*	*	*	*^	*	*^	*	*	*	*	*	*	*	*	*	*	*	*	*	*	*	*	*	*	*	*	*
!	!	!	!	!	!	!	!	!	!	!	!	!	!	!	!	!	!	!	!	!	!LO:TX:b:i:t=NB	!	!	!	!	!	!	!	!	!
8F\	3	.	8cc\	.	8a/	8ryy	.	8ff\	8ryy	.	8F\	-re	8c\	-re	8a\	-re	8ff\	-re	8A/	.	8f\	.	8a/)	.	8ff\)	.	8aa\	.	8ff\	.
!	!	!	!	!	!	!	!	!	!	!	!	!	!	!	!	!	!	!	!	!	!LO:TX:b:i:t=Solo:color=red	!	!	!	!	!	!	!	!LO:TX:b:i:t=Solo:color=red	!
4r	.	.	8r	.	8r	8ryy	.	8r	8ryy	.	8r	.	8r	.	8r	.	8r	.	8r	.	8r	.	8r	.	8r	.	8r	.	8r	.
*	*	*	*	*	*	*cue	*	*	*cue	*	*	*	*	*	*	*	*	*	*	*	*	*	*	*	*	*	*	*	*	*
!	!	!	!	!	!	!	!	!LO:TX:a:t=Flauti	!	!	!	!	!	!	!	!	!	!	!LO:TX:a:i:t=Solo:color=red	!	!	!	!LO:TX:b:i:t=Solo	!	!LO:TX:b:i:t=Solo:color=red	!	!LO:TX:b:i:t=Solo	!	!	!
.	.	.	8r	.	8reyy	8ee/	.	8re	8gg/	.	8r	.	8r	.	8r	.	8r	.	8C/	.	8g\	.	8ee\	.	8gg\	.	8ee\	.	8gg\	.
!	!	!	!LO:LB:g=original	!	!	!	!	!	!	!	!	!	!	!	!	!	!	!	!	!	!LO:LB:g=original	!	!	!	!	!	!	!	!	!
=85	=85	=85	=85	=85	=85	=85	=85	=85	=85	=85	=85	=85	=85	=85	=85	=85	=85	=85	=85	=85	=85	=85	=85	=85	=85	=85	=85	=85	=85	=85
*	*	*	*^	*	*	*	*	*	*	*	*	*	*	*	*	*	*	*	*	*	*	*	*	*	*	*	*	*	*	*
*	*	*	*	*cue	*	*	*	*	*	*	*	*	*	*	*	*	*	*	*	*	*	*	*	*	*	*	*	*	*	*	*
!LO:N:vis=00	!	!	!	!	!	!	!	!	!	!	!	!LO:N:vis=00	!	!LO:N:vis=00	!	!LO:N:vis=00	!	!LO:N:vis=00	!	!	!	!	!	!	!	!	!	!	!	!	!
!LO:TX:a:t=4	!	!	!LO:TX:a:t=1	!	!	!LO:TX:b:t=1	!	!	!	!	!	!LO:TX:a:t=4	!	!LO:TX:a:t=4	!	!LO:TX:a:t=4	!	!LO:TX:a:t=4	!	!	!	!	!	!LO:TX:b:t=dolce:color=red	!	!	!	!	!	!	!
1.r	.	.	4.r	8F\L	.	4.rc	8ff/L	.	4.re	(8aa/L	.	1.r	.	1.r	.	1.r	.	1.r	.	(8F/L	.	(8a\L	.	(8ff\L	.	(8aa\L	.	(8ff\L	.	(8aa\L	.
!	!	!	!	!	!	!	!	!	!	!	!	!	!	!	!	!	!	!	!	!	!	!	!	!	!	!LO:TX:b:i:t=dolce:color=red	!	!LO:TX:b:i:t=dolce:color=red	!	!	!
.	.	.	.	8A\	.	.	8aa/	.	.	8ccc/)	.	.	.	.	.	.	.	.	.	8A/)	.	8f\)	.	8aa\)	.	8ccc\)	.	8aa\)	.	8ccc\)	.
.	.	.	.	8c\J	.	.	8ee/J	.	.	8bb-|/J	.	.	.	.	.	.	.	.	.	8c|/J	.	8g|\J	.	8ee|\J	.	8bb-|\J	.	8ee|\J	.	8bb-|\J	.
!	!	!	!	!	!	!	!	!	!	!LO:LB:g=original	!	!	!	!	!	!	!	!	!	!	!	!	!	!LO:LB:g=original	!	!	!	!	!	!	!
=86	=86	=86	=86	=86	=86	=86	=86	=86	=86	=86	=86	=86	=86	=86	=86	=86	=86	=86	=86	=86	=86	=86	=86	=86	=86	=86	=86	=86	=86	=86	=86
!	!	!	!LO:TX:a:t=2	!	!	!LO:TX:b:t=2	!	!	!	!	!	!	!	!	!	!LO:TX:t=P:problem: przekreślone 3 takty	!	!	!	!	!	!	!	!	!	!	!	!	!	!	!
.	.	.	4.r	8F\L	.	4.rc	8ff/L	.	4.re	(8aa/L	.	.	.	.	.	.	.	.	.	(8F/L	.	(8a\L	.	(8ff\L	.	(8aa\L	.	(8ff\L	.	(8aa\L	.
.	.	.	.	8A\	.	.	8aa/	.	.	8ccc/)	.	.	.	.	.	.	.	.	.	8A/)	.	8f\)	.	8aa\)	.	8ccc\)	.	8aa\)	.	8ccc\)	.
.	.	.	.	8c\J	.	.	8ee/J	.	.	8bb-|/J	.	.	.	.	.	.	.	.	.	8c|/J	.	8g|\J	.	8ee|\J	.	8bb-|\J	.	8ee|\J	.	8bb-|\J	.
!	!	!	!	!	!	!	!	!	!	!	!	!	!	!	!	!	!	!	!	!	!	!	!	!	!	!	!	!LO:LB:g=original	!	!	!
=87	=87	=87	=87	=87	=87	=87	=87	=87	=87	=87	=87	=87	=87	=87	=87	=87	=87	=87	=87	=87	=87	=87	=87	=87	=87	=87	=87	=87	=87	=87	=87
!	!	!	!LO:TX:a:t=3	!	!	!LO:TX:b:t=3	!	!	!	!	!	!	!	!	!	!	!	!	!	!	!	!	!	!	!	!	!	!	!	!	!
.	.	.	4.r	8F\L	.	4.rc	8ff/L	.	4.re	(8aa/L	.	.	.	.	.	.	.	.	.	(8F/L	.	(8a\L	.	(8ff\L	.	(8aa\L	.	(8ff\L	.	(8aa\L	.
.	.	.	.	8A\	.	.	8aa/	.	.	8ccc/)	.	.	.	.	.	.	.	.	.	8A/)	.	8f\)	.	8aa\)	.	8ccc\)	.	8aa\)	.	8ccc\)	.
.	.	.	.	8c\J	.	.	8ee/J	.	.	8bb-|/J	.	.	.	.	.	.	.	.	.	8c|/J	.	8g|\J	.	8ee|\J	.	8bb-|\J	.	8ee|\J	.	8bb-|\J	.
=88	=88	=88	=88	=88	=88	=88	=88	=88	=88	=88	=88	=88	=88	=88	=88	=88	=88	=88	=88	=88	=88	=88	=88	=88	=88	=88	=88	=88	=88	=88	=88
!	!	!	!LO:TX:a:t=4	!	!	!LO:TX:b:t=4	!	!	!	!	!	!	!	!	!	!	!	!	!	!	!	!	!	!	!	!	!	!	!	!	!
.	.	.	4.r	4F\	.	4.rc	4ff/	.	4.rc	4aa/	.	.	.	.	.	.	.	.	.	4F/	.	4f\	.	4ff\	.	4aa\	.	4ff\	.	4aa\	.
.	.	.	.	8r	.	.	8reee	.	.	8rbbb	.	.	.	.	.	.	.	.	.	8r	.	8r	.	8r	.	8r	.	8r	.	8r	.
*	*	*	*	*	*	*Xcue	*	*	*cue	*Xcue	*	*	*	*	*	*	*	*	*	*	*	*	*	*	*	*	*	*	*	*	*
*	*	*	*v	*v	*	*	*	*	*v	*v	*	*	*	*	*	*	*	*	*	*	*	*	*	*	*	*	*	*	*	*	*
*	*	*	*	*	*v	*v	*	*	*	*	*	*	*	*	*	*	*	*	*	*	*	*	*	*	*	*	*	*	*
!	!	!	!	!	!	!	!	!	!LO:LB:g=original	!	!	!	!	!	!	!	!	!	!	!	!	!	!	!	!	!	!	!
=89	=89	=89	=89	=89	=89	=89	=89	=89	=89	=89	=89	=89	=89	=89	=89	=89	=89	=89	=89	=89	=89	=89	=89	=89	=89	=89	=89	=89
!	!	!	!LO:N:vis=00	!	!LO:N:vis=00	!	!LO:N:vis=00	!	!	!	!	!	!	!	!	!	!	!	!LO:N:vis=00	!	!	!	!	!	!LO:N:vis=00	!	!LO:N:vis=00	!
!LO:TX:a:B:t=Adagio	!	!	!LO:TX:a:B:t=Adagio:color=red	!	!LO:TX:a:B:t=Adagio:color=red	!	!LO:TX:a:B:t=Adagio:color=red	!	!	!	!	!	!	!	!	!	!LO:N:vis=00	!	!LO:TX:b:t=4	!	!	!	!	!	!LO:TX:a:B:t=Adagio:color=red	!	!LO:TX:a:B:t=Adagio:color=red	!
!LO:TX:b:t=Pedal	!	!	!LO:TX:a:t=4	!	!LO:TX:a:t=4	!	!LO:TX:a:t=4	!	!LO:TX:a:B:t=Adagio	!	!LO:TX:a:B:t=Adagio	!	!LO:TX:a:B:t=Adagio	!	!LO:TX:a:B:t=Adagio	!	!LO:TX:a:B:t=Adagio:color=red	!	!LO:TX:a:B:t=Adagio	!	!LO:TX:a:B:t=Adagio	!LO:DY:b:t=piano:color=red	!LO:TX:a:B:t=Adagio	!LO:DY:b:t=piano:color=red	!LO:TX:a:t=4	!	!LO:TX:a:t=4	!
4.BB-/	.	.	1.r	.	1.r	.	1.r	.	4B-\	mi-	4f\	mi-	4b-\	mi-	4dd\	mi-	1.r	.	1.r	.	(<4.b-\	p	(4.dd\	p	1.r	.	1.r	.
.	.	.	.	.	.	.	.	.	8B-\	-se-	8f\	-se-	8b-\	-se-	8dd\	-se-	.	.	.	.	.	.	.	.	.	.	.	.
=90	=90	=90	=90	=90	=90	=90	=90	=90	=90	=90	=90	=90	=90	=90	=90	=90	=90	=90	=90	=90	=90	=90	=90	=90	=90	=90	=90	=90
!	!	!LO:DY:b:t=pia:color=red	!	!	!	!	!	!	!	!	!	!	!	!	!	!	!	!	!	!	!	!	!	!	!	!	!	!
4.F\	.	p	.	.	.	.	.	.	4F\	-re-	4f\	-re-	4a\	-re-	4cc\	-re-	.	.	.	.	4.a/	.	4.cc\)	.	.	.	.	.
.	.	.	.	.	.	.	.	.	8F\	-re	8f\	-re	8a\	-re	8cc\	-re	.	.	.	.	.	.	.	.	.	.	.	.
!	!	!	!	!	!	!	!	!	!	!	!LO:LB:g=original	!	!LO:LB:g=original	!	!	!	!	!	!	!	!	!	!	!	!	!	!	!
=91	=91	=91	=91	=91	=91	=91	=91	=91	=91	=91	=91	=91	=91	=91	=91	=91	=91	=91	=91	=91	=91	=91	=91	=91	=91	=91	=91	=91
4.C/	.	.	.	.	.	.	.	.	4.C/	no-	4.G/	no-	4.g\	no-	4.ee\	no-	.	.	.	.	4.g/	.	(4.ee\	.	.	.	.	.
=92	=92	=92	=92	=92	=92	=92	=92	=92	=92	=92	=92	=92	=92	=92	=92	=92	=92	=92	=92	=92	=92	=92	=92	=92	=92	=92	=92	=92
!	!	!	!LO:TX:b:t=Finis.	!	!LO:TX:b:t=Finis.	!	!LO:TX:b:t=Finis.	!	!	!	!	!	!	!	!	!	!	!	!	!	!	!	!LO:TX:b:t=Fine	!	!	!	!	!
4.FF/	.	.	.	.	.	.	.	.	4F\	-bis	4c\	-bis	4a\	-bis	4ff\	-bis	.	.	.	.	4a/)	.	4.ff|\)	.	.	.	.	.
!	!	!	!	!	!	!	!	!	!	!	!	!	!	!	!	!	!	!	!	!	!LO:TX:b:t=Fine	!	!	!	!	!	!	!
.	.	.	.	.	.	.	.	.	8r	.	8r	.	8r	.	8r	.	.	.	.	.	8r	.	.	.	.	.	.	.
==	==	==	==	==	==	==	==	==	==	==	==	==	==	==	==	==	==	==	==	==	==	==	==	==	==	==	==	==
*-	*-	*-	*-	*-	*-	*-	*-	*-	*-	*-	*-	*-	*-	*-	*-	*-	*-	*-	*-	*-	*-	*-	*-	*-	*-	*-	*-	*-
!!!system-decoration: [(s1,s2,s3,s4)][(s5,s6)][(s7,s8,s9,s10)][(s11,s12,s13)]s14
!!!RDF**kern: > = above
!!!RDF**kern: < = below
!!!RDF**kern: | = vertical stroke
!!!ENC: Marcin Jachim
!!!END: 2020-10-16
!!!ENC: Jan Barakat
!!!END: 2022-06-24
